%
O0001(01_Roughing)
N0T20M6
N10(G54G90)
N20G54G90
 
/M3S15000.0
/G04X300.(DWELL FOR 5 MINUTES)
 
(Offset_area_clear)
 
M3S4000
 
(REMEMBER TO USE Y TO AVOID RADIUS ON STEEL TOOLS OTHERWISE WRONG HEIGHT Y-.1275)
G65P9624D1H1T1Y-.169
 

(THIS ISNT IN POST YET)
(Tool Holder Diameter: 10.0)

(GUAGE LENGTH)
#128 = 1.4
#127 = 3.9216 (REGOFIX TOOL HOLDER LENGTH)
#129 = #127 + #128 (THEORETICAL SAFE HEIGHT)
#130 = #11001 (CURRENT H VALUE)
IF [ #130 LE #129 ] THEN #3000 = 140
 
M250 (SEMI FINISH) 
 
(SPINDLE START)
M3S15000.0
G04 X10. (WAIT 10 SECONDS) 
 
N30( Toolpath Name: 01_Roughing)
N40( Output:)
N50( Units: INCHES)
N60( Tool Coordinates: Tip)
N70( Tool Number: 20)
N80( Tool Id: .375 OSG Exocarb 1.4 length)
N90( Coolant: None)
N100( Gauge Length: 5.208)
N110( Block:)
N120( MIN X: -2.80015)
N130( MIN Y: -0.34666)
N140( MIN Z: 0.00000)
N150( MAX X: 1.19985)
N160( MAX Y: 4.65334)
N170( MAX Z: 1.75000)
N180( COORDINATE SYSTEM: Active Workplane)
N190( Datum - Tool Tip:)
N200(   X: -0.80014)
N210(   Y: 2.15334)
N220(   Z: 2.35000)
N230( Recommended length: 1.40000)
N240( Number of Flutes: 1)
N250( Tool:   End Mill)
N260( DIAMETER: 0.37500)
N270( Safety:)
N280( Tool Cutting Moves: Safe No Gouges)
N290( Tool Leads: Safe No Gouges)
N300( Tool Links: Safe No Gouges)
N310( Holder Cutting Moves: Safe No Collisions)
N320( Holder Leads: Safe No Collisions)
N330( Holder Links: Safe No Collisions)
N340( Toolpath: Offset Area Clearance)
N350( STEPOVER: 0.12500)
N360( TOLERANCE:0.00030)
N370( THICKNESS:0.05000)
N380( Toolpath Stats:)
N390( LENGTH: 1611.46997)
N400( TIME: 0/17/22)
N410( LIFTS: 154)
 
M07(Turn on air)
 
N420G0X.7226Y-.0226M3
N430G43Z1.95H01
N440G1X.7213Y-.034Z1.948F30.
N450X.7208Y-.0417Z1.9466
N460X.7206Y-.0491Z1.9453
N470X.7208Y-.0566Z1.944
N480X.7213Y-.0643Z1.9426
N490X.7221Y-.0723Z1.9412
N500X.7234Y-.0806Z1.9397
N510X.7252Y-.0891Z1.9382
N520X.7274Y-.0979Z1.9366
N530X.7302Y-.1069Z1.9349
N540X.7337Y-.1161Z1.9332
N550X.7378Y-.1254Z1.9314
N560X.7426Y-.1349Z1.9295
N570X.7482Y-.1443Z1.9276
N580X.7545Y-.1537Z1.9256
N590X.7617Y-.1629Z1.9235
N600X.7698Y-.172Z1.9214
N610X.7787Y-.1807Z1.9192
N620X.7884Y-.189Z1.917
N630X.799Y-.1967Z1.9146
N640X.8104Y-.2038Z1.9123
N650X.8226Y-.2102Z1.9099
N660X.8354Y-.2156Z1.9074
N670X.8489Y-.2201Z1.9049
N680X.8628Y-.2236Z1.9024
N690X.877Y-.2259Z1.8998
N700X.8915Y-.2271Z1.8973
N710X.906Z1.8947
N720X.9205Y-.2259Z1.8922
N730X.9347Y-.2236Z1.8896
N740X.9486Y-.2201Z1.8871
N750X.962Y-.2156Z1.8846
N760X.9749Y-.2102Z1.8821
N770X.987Y-.2038Z1.8797
N780X.9985Y-.1967Z1.8773
N790X1.0091Y-.189Z1.875
N800X1.0188Y-.1807Z1.8728
N810X1.0277Y-.172Z1.8706
N820X1.0358Y-.1629Z1.8684
N830X1.043Y-.1537Z1.8664
N840X1.0493Y-.1443Z1.8644
N850X1.0549Y-.1349Z1.8624
N860X1.0597Y-.1254Z1.8606
N870X1.0638Y-.1161Z1.8588
N880X1.0672Y-.1069Z1.857
N890X1.0701Y-.0979Z1.8554
N900X1.0723Y-.0891Z1.8538
N910X1.0741Y-.0806Z1.8522
N920X1.0754Y-.0723Z1.8508
N930X1.0762Y-.0643Z1.8493
N940X1.0767Y-.0566Z1.848
N950X1.0769Y-.0491Z1.8467
N960X1.0767Y-.0417Z1.8454
N970X1.0762Y-.034Z1.844
N980X1.0754Y-.026Z1.8426
N990X1.0741Y-.0177Z1.8411
N1000X1.0723Y-.0092Z1.8396
N1010X1.0701Y-.0004Z1.838
N1020X1.0672Y.0086Z1.8363
N1030X1.0638Y.0178Z1.8346
N1040X1.0597Y.0272Z1.8328
N1050X1.0549Y.0366Z1.8309
N1060X1.0493Y.046Z1.829
N1070X1.043Y.0554Z1.827
N1080X1.0358Y.0647Z1.8249
N1090X1.0277Y.0737Z1.8228
N1100X1.0188Y.0824Z1.8206
N1110X1.0091Y.0907Z1.8183
N1120X1.0065Y.0926Z1.8178
N1130X1.0003Y.0962Z1.8165
N1140X.9932Y.0986Z1.8152
N1150X.9858Y.0995Z1.8139
N1160X.9784Y.0988Z1.8125
N1170X.9715Y.0966Z1.8113
N1180X.9617Y.0925Z1.8094
N1190X.9467Y.0871Z1.8066
N1200X.9317Y.0825Z1.8038
N1210X.9167Y.0787Z1.8011
N1220X.9049Y.0764Z1.799
N1230X.8867Y.0736Z1.7957
N1240X.8717Y.0722Z1.7931
N1250X.8567Y.0715Z1.7904
N1260X.7844Z1.7777
N1270X.7765Y.0706Z1.7763
N1280X.7688Y.0679Z1.7748
N1290X.7619Y.0634Z1.7734
N1300X.7563Y.0577Z1.772
N1310X.7545Y.0554Z1.7715
N1320X.7482Y.046Z1.7695
N1330X.7426Y.0366Z1.7675
N1340X.7378Y.0272Z1.7657
N1350X.7337Y.0178Z1.7639
N1360X.7302Y.0086Z1.7622
N1370X.7274Y-.0004Z1.7605
N1380X.7252Y-.0092Z1.7589
N1390X.7234Y-.0177Z1.7573
N1400X.7221Y-.026Z1.7559
N1410X.7213Y-.034Z1.7545
N1420X.7208Y-.0417Z1.7531
N1430X.7206Y-.0491Z1.7518
N1440X.7208Y-.0566Z1.7505
N1450X.7213Y-.0643Z1.7491
N1460X.7221Y-.0723Z1.7477
N1470X.7234Y-.0806Z1.7462
N1480X.7252Y-.0891Z1.7447
N1490X.7274Y-.0979Z1.7431
N1500X.7302Y-.1069Z1.7414
N1510X.7337Y-.1161Z1.7397
N1520X.7378Y-.1254Z1.7379
N1530X.7426Y-.1349Z1.736
N1540X.7482Y-.1443Z1.7341
N1550X.7545Y-.1537Z1.7321
N1560X.7617Y-.1629Z1.73
N1570X.7698Y-.172Z1.7279
N1580X.7787Y-.1807Z1.7257
N1590X.7884Y-.189Z1.7234
N1600X.799Y-.1967Z1.7211
N1610X.8104Y-.2038Z1.7187
N1620X.8226Y-.2102Z1.7163
N1630X.8354Y-.2156Z1.7139
N1640X.8489Y-.2201Z1.7114
N1650X.8628Y-.2236Z1.7088
N1660X.877Y-.2259Z1.7063
N1670X.8915Y-.2271Z1.7037
N1680X.906Z1.7012
N1690X.9127Y-.2266Z1.7
N1700G3G17X.9942Y-.1309I-.0073J.0887
N1710X.8987Y-.0491I-.0887J-.007
N1720G1X.8937Y-.0495F205.
N1730G3X.8939Y-.054I.0002J-.0022
N1740G1X.9039
N1750G3X.9058Y-.052I0J.0019
N1760G1X.9057Y-.0505
N1770G3X.9037Y-.0488I-.0018J-.0001
N1780G1X.8987Y-.0491
N1790G0Z2.35
N1800X-.4648Y.8389
N1810Z1.95
N1820G1X-.4667Y.8401Z1.9496F30.
N1830X-.4789Y.8464Z1.9472
N1840X-.4917Y.8519Z1.9447
N1850X-.5052Y.8564Z1.9422
N1860X-.519Y.8598Z1.9397
N1870X-.5333Y.8622Z1.9371
N1880X-.5478Y.8634Z1.9346
N1890X-.5623Z1.932
N1900X-.5768Y.8622Z1.9295
N1910X-.591Y.8598Z1.9269
N1920X-.6049Y.8564Z1.9244
N1930X-.6183Y.8519Z1.9219
N1940X-.6312Y.8464Z1.9194
N1950X-.6433Y.8401Z1.917
N1960X-.6547Y.833Z1.9147
N1970X-.6653Y.8252Z1.9123
N1980X-.6751Y.817Z1.9101
N1990X-.684Y.8082Z1.9079
N2000X-.6921Y.7992Z1.9058
N2010X-.6992Y.7899Z1.9037
N2020X-.7056Y.7805Z1.9017
N2030X-.7112Y.7711Z1.8998
N2040X-.716Y.7617Z1.8979
N2050X-.7201Y.7524Z1.8961
N2060X-.7235Y.7432Z1.8944
N2070X-.7263Y.7341Z1.8927
N2080X-.7286Y.7254Z1.8911
N2090X-.7304Y.7168Z1.8896
N2100X-.7316Y.7085Z1.8881
N2110X-.7325Y.7005Z1.8867
N2120X-.733Y.6928Z1.8853
N2130X-.7332Y.6854Z1.884
N2140X-.733Y.678Z1.8827
N2150X-.7325Y.6703Z1.8813
N2160X-.7316Y.6623Z1.8799
N2170X-.7304Y.654Z1.8784
N2180X-.7286Y.6454Z1.8769
N2190X-.7263Y.6366Z1.8753
N2200X-.7235Y.6276Z1.8736
N2210X-.7201Y.6184Z1.8719
N2220X-.716Y.6091Z1.8701
N2230X-.7112Y.5997Z1.8682
N2240X-.7056Y.5902Z1.8663
N2250X-.6992Y.5808Z1.8643
N2260X-.6921Y.5716Z1.8622
N2270X-.684Y.5625Z1.8601
N2280X-.6751Y.5538Z1.8579
N2290X-.6653Y.5455Z1.8556
N2300X-.6547Y.5378Z1.8533
N2310X-.6433Y.5307Z1.851
N2320X-.6312Y.5244Z1.8485
N2330X-.6183Y.5189Z1.8461
N2340X-.6049Y.5144Z1.8436
N2350X-.591Y.5109Z1.8411
N2360X-.5768Y.5086Z1.8385
N2370X-.5623Y.5074Z1.836
N2380X-.5478Z1.8334
N2390X-.5333Y.5086Z1.8308
N2400X-.519Y.5109Z1.8283
N2410X-.5052Y.5144Z1.8258
N2420X-.4917Y.5189Z1.8233
N2430X-.4789Y.5244Z1.8208
N2440X-.4667Y.5307Z1.8184
N2450X-.4553Y.5378Z1.816
N2460X-.4447Y.5455Z1.8137
N2470X-.4349Y.5538Z1.8114
N2480X-.426Y.5625Z1.8093
N2490X-.418Y.5716Z1.8071
N2500X-.4108Y.5808Z1.8051
N2510X-.4044Y.5902Z1.8031
N2520X-.3989Y.5997Z1.8011
N2530X-.3941Y.6091Z1.7993
N2540X-.39Y.6184Z1.7975
N2550X-.3865Y.6276Z1.7957
N2560X-.3837Y.6366Z1.7941
N2570X-.3814Y.6454Z1.7925
N2580X-.3797Y.654Z1.7909
N2590X-.3784Y.6623Z1.7894
N2600X-.3775Y.6703Z1.788
N2610X-.3771Y.678Z1.7867
N2620X-.3769Y.6854Z1.7854
N2630X-.3771Y.6928Z1.784
N2640X-.3775Y.7005Z1.7827
N2650X-.3784Y.7085Z1.7813
N2660X-.3797Y.7168Z1.7798
N2670X-.3814Y.7254Z1.7783
N2680X-.3837Y.7341Z1.7767
N2690X-.3865Y.7432Z1.775
N2700X-.39Y.7524Z1.7733
N2710X-.3941Y.7617Z1.7715
N2720X-.3989Y.7711Z1.7696
N2730X-.4044Y.7805Z1.7677
N2740X-.4108Y.7899Z1.7657
N2750X-.418Y.7992Z1.7636
N2760X-.426Y.8082Z1.7615
N2770X-.4349Y.817Z1.7593
N2780X-.4447Y.8252Z1.757
N2790X-.4553Y.833Z1.7547
N2800X-.4667Y.8401Z1.7523
N2810X-.4789Y.8464Z1.7499
N2820X-.4917Y.8519Z1.7474
N2830X-.5052Y.8564Z1.7449
N2840X-.519Y.8598Z1.7424
N2850X-.5333Y.8622Z1.7399
N2860X-.5478Y.8634Z1.7373
N2870X-.5623Z1.7348
N2880X-.5768Y.8622Z1.7322
N2890X-.591Y.8598Z1.7297
N2900X-.6049Y.8564Z1.7271
N2910X-.6183Y.8519Z1.7246
N2920X-.6312Y.8464Z1.7222
N2930X-.6433Y.8401Z1.7198
N2940X-.6547Y.833Z1.7174
N2950X-.6653Y.8252Z1.7151
N2960X-.6751Y.817Z1.7128
N2970X-.684Y.8082Z1.7106
N2980X-.6921Y.7992Z1.7085
N2990X-.6992Y.7899Z1.7064
N3000X-.7056Y.7805Z1.7044
N3010X-.7112Y.7711Z1.7025
N3020X-.716Y.7617Z1.7006
N3030X-.7174Y.7585Z1.7
N3040G3X-.6724Y.6414I.0815J-.0358
N3050X-.555Y.6854I.0366J.0811
N3060X-.5806Y.7125I-.0177J.0089F205.
N3070G1X-.6009Y.7036
N3080X-.6279Y.6923
N3090X-.6434Y.6861
N3100G3X-.6384Y.663I.0045J-.0111
N3110G1X-.5812Y.6657
N3120G3X-.5606Y.6771I-.0013J.0267
N3130G1X-.5565Y.683
N3140X-.5557Y.6842
N3150X-.555Y.6854
N3160G0Z2.35
N3170X-1.7905Y.7105
M#150
N3180Z1.95
N3190G1X-1.7904Y.6941Z1.9471F30.
N3200X-1.7897Y.6891Z1.9462
N3210X-1.7881Y.6841Z1.9453
N3220X-1.7857Y.6793Z1.9444
N3230X-1.7825Y.6748Z1.9434
N3240X-1.7786Y.6709Z1.9424
N3250X-1.7741Y.6677Z1.9414
N3260X-1.7693Y.6653Z1.9405
N3270X-1.7643Y.6637Z1.9396
N3280X-1.7593Y.663Z1.9387
N3290X-1.4347Z1.8814
N3300X-1.4317Y.6638Z1.8809
N3310X-1.4289Y.6654Z1.8803
N3320X-1.4265Y.6678Z1.8797
N3330X-1.425Y.6706Z1.8792
N3340X-1.4242Y.6736Z1.8786
N3350X-1.4243Y.6766Z1.8781
N3360X-1.4251Y.6796Z1.8775
N3370X-1.4267Y.6824Z1.877
N3380X-1.429Y.6846Z1.8764
N3390X-1.4317Y.6861Z1.8759
N3400X-1.4635Y.699Z1.8698
N3410X-1.4925Y.7118Z1.8642
N3420X-1.5212Y.7253Z1.8586
N3430X-1.5495Y.7397Z1.853
N3440X-1.5775Y.755Z1.8474
N3450X-1.6049Y.771Z1.8418
N3460X-1.6319Y.7879Z1.8362
N3470X-1.6584Y.8055Z1.8306
N3480X-1.6844Y.8239Z1.825
N3490X-1.7097Y.843Z1.8194
N3500X-1.7345Y.8627Z1.8138
N3510X-1.7643Y.8878Z1.8069
N3520X-1.7684Y.8899Z1.8061
N3530X-1.7718Y.8907Z1.8055
N3540X-1.7754Y.8908Z1.8049
N3550X-1.7791Y.89Z1.8042
N3560X-1.7826Y.8884Z1.8035
N3570X-1.7856Y.8861Z1.8028
N3580X-1.7879Y.8832Z1.8022
N3590X-1.7894Y.8802Z1.8016
N3600X-1.7904Y.8757Z1.8008
N3610Y.6941Z1.7688
N3620X-1.7897Y.6891Z1.7679
N3630X-1.7881Y.6841Z1.767
N3640X-1.7857Y.6793Z1.766
N3650X-1.7825Y.6748Z1.765
N3660X-1.7786Y.6709Z1.7641
N3670X-1.7741Y.6677Z1.7631
N3680X-1.7693Y.6653Z1.7621
N3690X-1.7643Y.6637Z1.7612
N3700X-1.7593Y.663Z1.7603
N3710X-1.4347Z1.7031
N3720X-1.4317Y.6638Z1.7025
N3730X-1.4289Y.6654Z1.702
N3740X-1.4265Y.6678Z1.7014
N3750X-1.425Y.6706Z1.7008
N3760X-1.4242Y.6736Z1.7003
N3770X-1.4241Y.6751Z1.7
N3780G3X-1.4317Y.6861I-.012J-.0001F205.
N3790G1X-1.4489Y.693
N3800G2X-1.7466Y.8729I.4101J1.0153
N3810G1X-1.7632Y.8869
N3820G3X-1.7905Y.8743I-.0107J-.0127
N3830G1Y.6965
N3840G3X-1.7569Y.6629I.0336J0
N3850G1X-1.4362
N3860G3X-1.4241Y.6751I0J.012
N3870G0Z2.35
N3880X-1.3865Y.7975
N3890Z1.95
N3900G1X-1.3631Y.7889Z1.9456F30.
N3910X-1.3344Y.7792Z1.9403
N3920X-1.3053Y.7704Z1.9349
N3930X-1.2759Y.7625Z1.9295
N3940X-1.2462Y.7556Z1.9242
N3950X-1.2163Y.7495Z1.9188
N3960X-1.1862Y.7444Z1.9134
N3970X-1.156Y.7402Z1.908
N3980X-1.1257Y.737Z1.9026
N3990X-1.0953Y.7348Z1.8973
N4000X-1.0649Y.7334Z1.8919
N4010X-1.0346Y.7331Z1.8866
N4020X-1.0044Y.7336Z1.8812
N4030X-.9742Y.7351Z1.8759
N4040X-.9443Y.7375Z1.8706
N4050X-.9145Y.7408Z1.8653
N4060X-.885Y.745Z1.8601
N4070X-.8558Y.7501Z1.8549
N4080X-.827Y.756Z1.8497
N4090X-.7984Y.7628Z1.8445
N4100X-.7703Y.7703Z1.8394
N4110X-.7426Y.7786Z1.8343
N4120X-.7154Y.7877Z1.8292
N4130X-.6886Y.7975Z1.8242
N4140X-.6623Y.808Z1.8192
N4150X-.6366Y.8191Z1.8143
N4160X-.6114Y.8309Z1.8094
N4170X-.5868Y.8432Z1.8045
N4180X-.5627Y.8562Z1.7997
N4190X-.5393Y.8696Z1.7949
N4200X-.5164Y.8836Z1.7902
N4210X-.4942Y.898Z1.7855
N4220X-.4727Y.9129Z1.7809
N4230X-.4517Y.9281Z1.7763
N4240X-.4314Y.9438Z1.7718
N4250X-.4118Y.9597Z1.7674
N4260X-.396Y.9728Z1.7637
N4270X-.3926Y.9745Z1.7631
N4280X-.3898Y.9751Z1.7626
N4290X-.3866Y.975Z1.762
N4300X-.3834Y.9741Z1.7614
N4310X-.3805Y.9724Z1.7608
N4320X-.3781Y.9699Z1.7602
N4330X-.3765Y.9671Z1.7596
N4340X-.3756Y.9642Z1.7591
N4350Y.9602Z1.7584
N4360X-.3761Y.958Z1.758
N4370X-.387Y.925Z1.7519
N4380X-.3959Y.8953Z1.7464
N4390X-.4056Y.8595Z1.7399
N4400X-.4094Y.8479Z1.7377
N4410X-.4141Y.8365Z1.7355
N4420X-.4197Y.8254Z1.7334
N4430X-.4261Y.8148Z1.7312
N4440X-.4333Y.8046Z1.729
N4450X-.4412Y.795Z1.7268
N4460X-.4497Y.786Z1.7246
N4470X-.4588Y.7778Z1.7224
N4480X-.4684Y.7703Z1.7203
N4490X-.4851Y.7577Z1.7166
N4500X-.5012Y.7444Z1.7129
N4510X-.5168Y.7304Z1.7092
N4520X-.5317Y.7157Z1.7055
N4530X-.5461Y.7005Z1.7018
N4540X-.553Y.6926Z1.7
N4550G2X-.4684Y.7703I.3759J-.3242F205.
N4560G3X-.404Y.8654I-.0989J.1364
N4570G2X-.3822Y.9398I1.0233J-.2593
N4580G1X-.3761Y.958
N4590G3X-.3969Y.9721I-.0124J.0041
N4600G1X-.4118Y.9597
N4610G2X-1.8762Y1.2085I-.6258J.7506
N4620G1X-1.8862Y1.2252
N4630G3X-1.9107Y1.2184I-.0113J-.0068
N4640G1X-1.9106Y.5764
N4650G3X-1.877Y.5428I.0336J0
N4660G1X-.4681
N4670G3X-.4359Y.5758I0J.0322
N4680G1X-.4363Y.5993
N4690G2X-.404Y.8654I1.0556J.0068
N4700G0Z2.35
N4710X.0257Y3.2231
N4720Z1.95
M#150
N4730G1X.0335Y3.2297Z1.9482F30.
N4740X.0424Y3.2384Z1.946
N4750X.0504Y3.2474Z1.9439
N4760X.0576Y3.2567Z1.9418
N4770X.064Y3.2661Z1.9398
N4780X.0695Y3.2755Z1.9379
N4790X.0744Y3.2849Z1.936
N4800X.0785Y3.2943Z1.9342
N4810X.0819Y3.3035Z1.9325
N4820X.0847Y3.3125Z1.9308
N4830X.087Y3.3213Z1.9292
N4840X.0887Y3.3298Z1.9277
N4850X.09Y3.3381Z1.9262
N4860X.0909Y3.3461Z1.9248
N4870X.0914Y3.3538Z1.9234
N4880X.0915Y3.3612Z1.9221
N4890X.0914Y3.3686Z1.9208
N4900X.0909Y3.3764Z1.9194
N4910X.09Y3.3844Z1.918
N4920X.0887Y3.3926Z1.9166
N4930X.087Y3.4012Z1.915
N4940X.0847Y3.41Z1.9134
N4950X.0819Y3.419Z1.9117
N4960X.0785Y3.4282Z1.91
N4970X.0744Y3.4375Z1.9082
N4980X.0695Y3.4469Z1.9064
N4990X.064Y3.4564Z1.9044
N5000X.0576Y3.4658Z1.9024
N5010X.0504Y3.475Z1.9004
N5020X.0424Y3.4841Z1.8982
N5030X.0335Y3.4928Z1.896
N5040X.0237Y3.5011Z1.8938
N5050X.0131Y3.5088Z1.8915
N5060X.0017Y3.5159Z1.8891
N5070X-.0105Y3.5223Z1.8867
N5080X-.0233Y3.5277Z1.8842
N5090X-.0367Y3.5322Z1.8817
N5100X-.0506Y3.5357Z1.8792
N5110X-.0649Y3.538Z1.8766
N5120X-.0793Y3.5392Z1.8741
N5130X-.0939Z1.8715
N5140X-.1083Y3.538Z1.869
N5150X-.1226Y3.5357Z1.8664
N5160X-.1365Y3.5322Z1.8639
N5170X-.1499Y3.5277Z1.8614
N5180X-.1627Y3.5223Z1.8589
N5190X-.1749Y3.5159Z1.8565
N5200X-.1863Y3.5088Z1.8541
N5210X-.1969Y3.5011Z1.8518
N5220X-.2067Y3.4928Z1.8496
N5230X-.2156Y3.4841Z1.8474
N5240X-.2236Y3.475Z1.8452
N5250X-.2308Y3.4658Z1.8432
N5260X-.2372Y3.4564Z1.8412
N5270X-.2427Y3.4469Z1.8392
N5280X-.2476Y3.4375Z1.8374
N5290X-.2517Y3.4282Z1.8356
N5300X-.2551Y3.419Z1.8339
N5310X-.2579Y3.41Z1.8322
N5320X-.2602Y3.4012Z1.8306
N5330X-.2619Y3.3926Z1.8291
N5340X-.2632Y3.3844Z1.8276
N5350X-.2641Y3.3764Z1.8262
N5360X-.2646Y3.3686Z1.8248
N5370X-.2647Y3.3612Z1.8235
N5380X-.2646Y3.3538Z1.8222
N5390X-.2641Y3.3461Z1.8208
N5400X-.2632Y3.3381Z1.8194
N5410X-.2619Y3.3298Z1.8179
N5420X-.2602Y3.3213Z1.8164
N5430X-.2579Y3.3125Z1.8148
N5440X-.2551Y3.3035Z1.8131
N5450X-.2517Y3.2943Z1.8114
N5460X-.2476Y3.2849Z1.8096
N5470X-.2427Y3.2755Z1.8077
N5480X-.2372Y3.2661Z1.8058
N5490X-.2308Y3.2567Z1.8038
N5500X-.2236Y3.2474Z1.8017
N5510X-.2156Y3.2384Z1.7996
N5520X-.2067Y3.2297Z1.7974
N5530X-.1969Y3.2214Z1.7951
N5540X-.1863Y3.2136Z1.7928
N5550X-.1749Y3.2065Z1.7904
N5560X-.1627Y3.2002Z1.788
N5570X-.1499Y3.1947Z1.7856
N5580X-.1365Y3.1902Z1.7831
N5590X-.1226Y3.1868Z1.7806
N5600X-.1083Y3.1844Z1.778
N5610X-.0939Y3.1832Z1.7754
N5620X-.0793Z1.7729
G90 G0 Z5.
M30