%
O0001(01_Roughing)
N0T20M6
N10(G54G90)
N20G54G90
 
/M3S15000.0
/G04X300.(DWELL FOR 5 MINUTES)
 
(Offset_area_clear)
 
M3S4000
 
(REMEMBER TO USE Y TO AVOID RADIUS ON STEEL TOOLS OTHERWISE WRONG HEIGHT Y-.1275)
G65P9624D1H1T1Y-.169
 

(THIS ISNT IN POST YET)
(Tool Holder Diameter: 10.0)

(GUAGE LENGTH)
#128 = 1.4
#127 = 3.9216 (REGOFIX TOOL HOLDER LENGTH)
#129 = #127 + #128 (THEORETICAL SAFE HEIGHT)
#130 = #11001 (CURRENT H VALUE)
IF [ #130 LE #129 ] THEN #3000 = 140
 
M250 (SEMI FINISH) 
 
(SPINDLE START)
M3S15000.0
G04 X10. (WAIT 10 SECONDS) 
 
N30( Toolpath Name: 01_Roughing)
N40( Output:)
N50( Units: INCHES)
N60( Tool Coordinates: Tip)
N70( Tool Number: 20)
N80( Tool Id: .375 OSG Exocarb 1.4 length)
N90( Coolant: None)
N100( Gauge Length: 5.208)
N110( Block:)
N120( MIN X: -2.80015)
N130( MIN Y: -0.34666)
N140( MIN Z: 0.00000)
N150( MAX X: 1.19985)
N160( MAX Y: 4.65334)
N170( MAX Z: 1.75000)
N180( COORDINATE SYSTEM: Active Workplane)
N190( Datum - Tool Tip:)
N200(   X: -0.80014)
N210(   Y: 2.15334)
N220(   Z: 2.35000)
N230( Recommended length: 1.40000)
N240( Number of Flutes: 1)
N250( Tool:   End Mill)
N260( DIAMETER: 0.37500)
N270( Safety:)
N280( Tool Cutting Moves: Safe No Gouges)
N290( Tool Leads: Safe No Gouges)
N300( Tool Links: Safe No Gouges)
N310( Holder Cutting Moves: Safe No Collisions)
N320( Holder Leads: Safe No Collisions)
N330( Holder Links: Safe No Collisions)
N340( Toolpath: Offset Area Clearance)
N350( STEPOVER: 0.12500)
N360( TOLERANCE:0.00030)
N370( THICKNESS:0.05000)
N380( Toolpath Stats:)
N390( LENGTH: 1611.46997)
N400( TIME: 0/17/22)
N410( LIFTS: 154)
 
M07(Turn on air)
 
N420G0X.7226Y-.0226M3
N430G43Z1.95H01
N440G1X.7213Y-.034Z1.948F30.
N450X.7208Y-.0417Z1.9466
N460X.7206Y-.0491Z1.9453
N470X.7208Y-.0566Z1.944
N480X.7213Y-.0643Z1.9426
N490X.7221Y-.0723Z1.9412
N500X.7234Y-.0806Z1.9397
N510X.7252Y-.0891Z1.9382
N520X.7274Y-.0979Z1.9366
N530X.7302Y-.1069Z1.9349
N540X.7337Y-.1161Z1.9332
N550X.7378Y-.1254Z1.9314
N560X.7426Y-.1349Z1.9295
N570X.7482Y-.1443Z1.9276
N580X.7545Y-.1537Z1.9256
N590X.7617Y-.1629Z1.9235
N600X.7698Y-.172Z1.9214
N610X.7787Y-.1807Z1.9192
N620X.7884Y-.189Z1.917
N630X.799Y-.1967Z1.9146
N640X.8104Y-.2038Z1.9123
N650X.8226Y-.2102Z1.9099
N660X.8354Y-.2156Z1.9074
N670X.8489Y-.2201Z1.9049
N680X.8628Y-.2236Z1.9024
N690X.877Y-.2259Z1.8998
N700X.8915Y-.2271Z1.8973
N710X.906Z1.8947
N720X.9205Y-.2259Z1.8922
N730X.9347Y-.2236Z1.8896
N740X.9486Y-.2201Z1.8871
N750X.962Y-.2156Z1.8846
N760X.9749Y-.2102Z1.8821
N770X.987Y-.2038Z1.8797
N780X.9985Y-.1967Z1.8773
N790X1.0091Y-.189Z1.875
N800X1.0188Y-.1807Z1.8728
N810X1.0277Y-.172Z1.8706
N820X1.0358Y-.1629Z1.8684
N830X1.043Y-.1537Z1.8664
N840X1.0493Y-.1443Z1.8644
N850X1.0549Y-.1349Z1.8624
N860X1.0597Y-.1254Z1.8606
N870X1.0638Y-.1161Z1.8588
N880X1.0672Y-.1069Z1.857
N890X1.0701Y-.0979Z1.8554
N900X1.0723Y-.0891Z1.8538
N910X1.0741Y-.0806Z1.8522
N920X1.0754Y-.0723Z1.8508
N930X1.0762Y-.0643Z1.8493
N940X1.0767Y-.0566Z1.848
N950X1.0769Y-.0491Z1.8467
N960X1.0767Y-.0417Z1.8454
N970X1.0762Y-.034Z1.844
N980X1.0754Y-.026Z1.8426
N990X1.0741Y-.0177Z1.8411
N1000X1.0723Y-.0092Z1.8396
N1010X1.0701Y-.0004Z1.838
N1020X1.0672Y.0086Z1.8363
N1030X1.0638Y.0178Z1.8346
N1040X1.0597Y.0272Z1.8328
N1050X1.0549Y.0366Z1.8309
N1060X1.0493Y.046Z1.829
N1070X1.043Y.0554Z1.827
N1080X1.0358Y.0647Z1.8249
N1090X1.0277Y.0737Z1.8228
N1100X1.0188Y.0824Z1.8206
N1110X1.0091Y.0907Z1.8183
N1120X1.0065Y.0926Z1.8178
N1130X1.0003Y.0962Z1.8165
N1140X.9932Y.0986Z1.8152
N1150X.9858Y.0995Z1.8139
N1160X.9784Y.0988Z1.8125
N1170X.9715Y.0966Z1.8113
N1180X.9617Y.0925Z1.8094
N1190X.9467Y.0871Z1.8066
N1200X.9317Y.0825Z1.8038
N1210X.9167Y.0787Z1.8011
N1220X.9049Y.0764Z1.799
N1230X.8867Y.0736Z1.7957
N1240X.8717Y.0722Z1.7931
N1250X.8567Y.0715Z1.7904
N1260X.7844Z1.7777
N1270X.7765Y.0706Z1.7763
N1280X.7688Y.0679Z1.7748
N1290X.7619Y.0634Z1.7734
N1300X.7563Y.0577Z1.772
N1310X.7545Y.0554Z1.7715
N1320X.7482Y.046Z1.7695
N1330X.7426Y.0366Z1.7675
N1340X.7378Y.0272Z1.7657
N1350X.7337Y.0178Z1.7639
N1360X.7302Y.0086Z1.7622
N1370X.7274Y-.0004Z1.7605
N1380X.7252Y-.0092Z1.7589
N1390X.7234Y-.0177Z1.7573
N1400X.7221Y-.026Z1.7559
N1410X.7213Y-.034Z1.7545
N1420X.7208Y-.0417Z1.7531
N1430X.7206Y-.0491Z1.7518
N1440X.7208Y-.0566Z1.7505
N1450X.7213Y-.0643Z1.7491
N1460X.7221Y-.0723Z1.7477
N1470X.7234Y-.0806Z1.7462
N1480X.7252Y-.0891Z1.7447
N1490X.7274Y-.0979Z1.7431
N1500X.7302Y-.1069Z1.7414
N1510X.7337Y-.1161Z1.7397
N1520X.7378Y-.1254Z1.7379
N1530X.7426Y-.1349Z1.736
N1540X.7482Y-.1443Z1.7341
N1550X.7545Y-.1537Z1.7321
N1560X.7617Y-.1629Z1.73
N1570X.7698Y-.172Z1.7279
N1580X.7787Y-.1807Z1.7257
N1590X.7884Y-.189Z1.7234
N1600X.799Y-.1967Z1.7211
N1610X.8104Y-.2038Z1.7187
N1620X.8226Y-.2102Z1.7163
N1630X.8354Y-.2156Z1.7139
N1640X.8489Y-.2201Z1.7114
N1650X.8628Y-.2236Z1.7088
N1660X.877Y-.2259Z1.7063
N1670X.8915Y-.2271Z1.7037
N1680X.906Z1.7012
N1690X.9127Y-.2266Z1.7
N1700G3G17X.9942Y-.1309I-.0073J.0887
N1710X.8987Y-.0491I-.0887J-.007
N1720G1X.8937Y-.0495F205.
N1730G3X.8939Y-.054I.0002J-.0022
N1740G1X.9039
N1750G3X.9058Y-.052I0J.0019
N1760G1X.9057Y-.0505
N1770G3X.9037Y-.0488I-.0018J-.0001
N1780G1X.8987Y-.0491
N1790G0Z2.35
N1800X-.4648Y.8389
N1810Z1.95
N1820G1X-.4667Y.8401Z1.9496F30.
N1830X-.4789Y.8464Z1.9472
N1840X-.4917Y.8519Z1.9447
N1850X-.5052Y.8564Z1.9422
N1860X-.519Y.8598Z1.9397
N1870X-.5333Y.8622Z1.9371
N1880X-.5478Y.8634Z1.9346
N1890X-.5623Z1.932
N1900X-.5768Y.8622Z1.9295
N1910X-.591Y.8598Z1.9269
N1920X-.6049Y.8564Z1.9244
N1930X-.6183Y.8519Z1.9219
N1940X-.6312Y.8464Z1.9194
N1950X-.6433Y.8401Z1.917
N1960X-.6547Y.833Z1.9147
N1970X-.6653Y.8252Z1.9123
N1980X-.6751Y.817Z1.9101
N1990X-.684Y.8082Z1.9079
N2000X-.6921Y.7992Z1.9058
N2010X-.6992Y.7899Z1.9037
N2020X-.7056Y.7805Z1.9017
N2030X-.7112Y.7711Z1.8998
N2040X-.716Y.7617Z1.8979
N2050X-.7201Y.7524Z1.8961
N2060X-.7235Y.7432Z1.8944
N2070X-.7263Y.7341Z1.8927
N2080X-.7286Y.7254Z1.8911
N2090X-.7304Y.7168Z1.8896
N2100X-.7316Y.7085Z1.8881
N2110X-.7325Y.7005Z1.8867
N2120X-.733Y.6928Z1.8853
N2130X-.7332Y.6854Z1.884
N2140X-.733Y.678Z1.8827
N2150X-.7325Y.6703Z1.8813
N2160X-.7316Y.6623Z1.8799
N2170X-.7304Y.654Z1.8784
N2180X-.7286Y.6454Z1.8769
N2190X-.7263Y.6366Z1.8753
N2200X-.7235Y.6276Z1.8736
N2210X-.7201Y.6184Z1.8719
N2220X-.716Y.6091Z1.8701
N2230X-.7112Y.5997Z1.8682
N2240X-.7056Y.5902Z1.8663
N2250X-.6992Y.5808Z1.8643
N2260X-.6921Y.5716Z1.8622
N2270X-.684Y.5625Z1.8601
N2280X-.6751Y.5538Z1.8579
N2290X-.6653Y.5455Z1.8556
N2300X-.6547Y.5378Z1.8533
N2310X-.6433Y.5307Z1.851
N2320X-.6312Y.5244Z1.8485
N2330X-.6183Y.5189Z1.8461
N2340X-.6049Y.5144Z1.8436
N2350X-.591Y.5109Z1.8411
N2360X-.5768Y.5086Z1.8385
N2370X-.5623Y.5074Z1.836
N2380X-.5478Z1.8334
N2390X-.5333Y.5086Z1.8308
N2400X-.519Y.5109Z1.8283
N2410X-.5052Y.5144Z1.8258
N2420X-.4917Y.5189Z1.8233
N2430X-.4789Y.5244Z1.8208
N2440X-.4667Y.5307Z1.8184
N2450X-.4553Y.5378Z1.816
N2460X-.4447Y.5455Z1.8137
N2470X-.4349Y.5538Z1.8114
N2480X-.426Y.5625Z1.8093
N2490X-.418Y.5716Z1.8071
N2500X-.4108Y.5808Z1.8051
N2510X-.4044Y.5902Z1.8031
N2520X-.3989Y.5997Z1.8011
N2530X-.3941Y.6091Z1.7993
N2540X-.39Y.6184Z1.7975
N2550X-.3865Y.6276Z1.7957
N2560X-.3837Y.6366Z1.7941
N2570X-.3814Y.6454Z1.7925
N2580X-.3797Y.654Z1.7909
N2590X-.3784Y.6623Z1.7894
N2600X-.3775Y.6703Z1.788
N2610X-.3771Y.678Z1.7867
N2620X-.3769Y.6854Z1.7854
N2630X-.3771Y.6928Z1.784
N2640X-.3775Y.7005Z1.7827
N2650X-.3784Y.7085Z1.7813
N2660X-.3797Y.7168Z1.7798
N2670X-.3814Y.7254Z1.7783
N2680X-.3837Y.7341Z1.7767
N2690X-.3865Y.7432Z1.775
N2700X-.39Y.7524Z1.7733
N2710X-.3941Y.7617Z1.7715
N2720X-.3989Y.7711Z1.7696
N2730X-.4044Y.7805Z1.7677
N2740X-.4108Y.7899Z1.7657
N2750X-.418Y.7992Z1.7636
N2760X-.426Y.8082Z1.7615
N2770X-.4349Y.817Z1.7593
N2780X-.4447Y.8252Z1.757
N2790X-.4553Y.833Z1.7547
N2800X-.4667Y.8401Z1.7523
N2810X-.4789Y.8464Z1.7499
N2820X-.4917Y.8519Z1.7474
N2830X-.5052Y.8564Z1.7449
N2840X-.519Y.8598Z1.7424
N2850X-.5333Y.8622Z1.7399
N2860X-.5478Y.8634Z1.7373
N2870X-.5623Z1.7348
N2880X-.5768Y.8622Z1.7322
N2890X-.591Y.8598Z1.7297
N2900X-.6049Y.8564Z1.7271
N2910X-.6183Y.8519Z1.7246
N2920X-.6312Y.8464Z1.7222
N2930X-.6433Y.8401Z1.7198
N2940X-.6547Y.833Z1.7174
N2950X-.6653Y.8252Z1.7151
N2960X-.6751Y.817Z1.7128
N2970X-.684Y.8082Z1.7106
N2980X-.6921Y.7992Z1.7085
N2990X-.6992Y.7899Z1.7064
N3000X-.7056Y.7805Z1.7044
N3010X-.7112Y.7711Z1.7025
N3020X-.716Y.7617Z1.7006
N3030X-.7174Y.7585Z1.7
N3040G3X-.6724Y.6414I.0815J-.0358
N3050X-.555Y.6854I.0366J.0811
N3060X-.5806Y.7125I-.0177J.0089F205.
N3070G1X-.6009Y.7036
N3080X-.6279Y.6923
N3090X-.6434Y.6861
N3100G3X-.6384Y.663I.0045J-.0111
N3110G1X-.5812Y.6657
N3120G3X-.5606Y.6771I-.0013J.0267
N3130G1X-.5565Y.683
N3140X-.5557Y.6842
N3150X-.555Y.6854
N3160G0Z2.35
N3170X-1.7905Y.7105
M#150
N3180Z1.95
N3190G1X-1.7904Y.6941Z1.9471F30.
N3200X-1.7897Y.6891Z1.9462
N3210X-1.7881Y.6841Z1.9453
N3220X-1.7857Y.6793Z1.9444
N3230X-1.7825Y.6748Z1.9434
N3240X-1.7786Y.6709Z1.9424
N3250X-1.7741Y.6677Z1.9414
N3260X-1.7693Y.6653Z1.9405
N3270X-1.7643Y.6637Z1.9396
N3280X-1.7593Y.663Z1.9387
N3290X-1.4347Z1.8814
N3300X-1.4317Y.6638Z1.8809
N3310X-1.4289Y.6654Z1.8803
N3320X-1.4265Y.6678Z1.8797
N3330X-1.425Y.6706Z1.8792
N3340X-1.4242Y.6736Z1.8786
N3350X-1.4243Y.6766Z1.8781
N3360X-1.4251Y.6796Z1.8775
N3370X-1.4267Y.6824Z1.877
N3380X-1.429Y.6846Z1.8764
N3390X-1.4317Y.6861Z1.8759
N3400X-1.4635Y.699Z1.8698
N3410X-1.4925Y.7118Z1.8642
N3420X-1.5212Y.7253Z1.8586
N3430X-1.5495Y.7397Z1.853
N3440X-1.5775Y.755Z1.8474
N3450X-1.6049Y.771Z1.8418
N3460X-1.6319Y.7879Z1.8362
N3470X-1.6584Y.8055Z1.8306
N3480X-1.6844Y.8239Z1.825
N3490X-1.7097Y.843Z1.8194
N3500X-1.7345Y.8627Z1.8138
N3510X-1.7643Y.8878Z1.8069
N3520X-1.7684Y.8899Z1.8061
N3530X-1.7718Y.8907Z1.8055
N3540X-1.7754Y.8908Z1.8049
N3550X-1.7791Y.89Z1.8042
N3560X-1.7826Y.8884Z1.8035
N3570X-1.7856Y.8861Z1.8028
N3580X-1.7879Y.8832Z1.8022
N3590X-1.7894Y.8802Z1.8016
N3600X-1.7904Y.8757Z1.8008
N3610Y.6941Z1.7688
N3620X-1.7897Y.6891Z1.7679
N3630X-1.7881Y.6841Z1.767
N3640X-1.7857Y.6793Z1.766
N3650X-1.7825Y.6748Z1.765
N3660X-1.7786Y.6709Z1.7641
N3670X-1.7741Y.6677Z1.7631
N3680X-1.7693Y.6653Z1.7621
N3690X-1.7643Y.6637Z1.7612
N3700X-1.7593Y.663Z1.7603
N3710X-1.4347Z1.7031
N3720X-1.4317Y.6638Z1.7025
N3730X-1.4289Y.6654Z1.702
N3740X-1.4265Y.6678Z1.7014
N3750X-1.425Y.6706Z1.7008
N3760X-1.4242Y.6736Z1.7003
N3770X-1.4241Y.6751Z1.7
N3780G3X-1.4317Y.6861I-.012J-.0001F205.
N3790G1X-1.4489Y.693
N3800G2X-1.7466Y.8729I.4101J1.0153
N3810G1X-1.7632Y.8869
N3820G3X-1.7905Y.8743I-.0107J-.0127
N3830G1Y.6965
N3840G3X-1.7569Y.6629I.0336J0
N3850G1X-1.4362
N3860G3X-1.4241Y.6751I0J.012
N3870G0Z2.35
N3880X-1.3865Y.7975
N3890Z1.95
N3900G1X-1.3631Y.7889Z1.9456F30.
N3910X-1.3344Y.7792Z1.9403
N3920X-1.3053Y.7704Z1.9349
N3930X-1.2759Y.7625Z1.9295
N3940X-1.2462Y.7556Z1.9242
N3950X-1.2163Y.7495Z1.9188
N3960X-1.1862Y.7444Z1.9134
N3970X-1.156Y.7402Z1.908
N3980X-1.1257Y.737Z1.9026
N3990X-1.0953Y.7348Z1.8973
N4000X-1.0649Y.7334Z1.8919
N4010X-1.0346Y.7331Z1.8866
N4020X-1.0044Y.7336Z1.8812
N4030X-.9742Y.7351Z1.8759
N4040X-.9443Y.7375Z1.8706
N4050X-.9145Y.7408Z1.8653
N4060X-.885Y.745Z1.8601
N4070X-.8558Y.7501Z1.8549
N4080X-.827Y.756Z1.8497
N4090X-.7984Y.7628Z1.8445
N4100X-.7703Y.7703Z1.8394
N4110X-.7426Y.7786Z1.8343
N4120X-.7154Y.7877Z1.8292
N4130X-.6886Y.7975Z1.8242
N4140X-.6623Y.808Z1.8192
N4150X-.6366Y.8191Z1.8143
N4160X-.6114Y.8309Z1.8094
N4170X-.5868Y.8432Z1.8045
N4180X-.5627Y.8562Z1.7997
N4190X-.5393Y.8696Z1.7949
N4200X-.5164Y.8836Z1.7902
N4210X-.4942Y.898Z1.7855
N4220X-.4727Y.9129Z1.7809
N4230X-.4517Y.9281Z1.7763
N4240X-.4314Y.9438Z1.7718
N4250X-.4118Y.9597Z1.7674
N4260X-.396Y.9728Z1.7637
N4270X-.3926Y.9745Z1.7631
N4280X-.3898Y.9751Z1.7626
N4290X-.3866Y.975Z1.762
N4300X-.3834Y.9741Z1.7614
N4310X-.3805Y.9724Z1.7608
N4320X-.3781Y.9699Z1.7602
N4330X-.3765Y.9671Z1.7596
N4340X-.3756Y.9642Z1.7591
N4350Y.9602Z1.7584
N4360X-.3761Y.958Z1.758
N4370X-.387Y.925Z1.7519
N4380X-.3959Y.8953Z1.7464
N4390X-.4056Y.8595Z1.7399
N4400X-.4094Y.8479Z1.7377
N4410X-.4141Y.8365Z1.7355
N4420X-.4197Y.8254Z1.7334
N4430X-.4261Y.8148Z1.7312
N4440X-.4333Y.8046Z1.729
N4450X-.4412Y.795Z1.7268
N4460X-.4497Y.786Z1.7246
N4470X-.4588Y.7778Z1.7224
N4480X-.4684Y.7703Z1.7203
N4490X-.4851Y.7577Z1.7166
N4500X-.5012Y.7444Z1.7129
N4510X-.5168Y.7304Z1.7092
N4520X-.5317Y.7157Z1.7055
N4530X-.5461Y.7005Z1.7018
N4540X-.553Y.6926Z1.7
N4550G2X-.4684Y.7703I.3759J-.3242F205.
N4560G3X-.404Y.8654I-.0989J.1364
N4570G2X-.3822Y.9398I1.0233J-.2593
N4580G1X-.3761Y.958
N4590G3X-.3969Y.9721I-.0124J.0041
N4600G1X-.4118Y.9597
N4610G2X-1.8762Y1.2085I-.6258J.7506
N4620G1X-1.8862Y1.2252
N4630G3X-1.9107Y1.2184I-.0113J-.0068
N4640G1X-1.9106Y.5764
N4650G3X-1.877Y.5428I.0336J0
N4660G1X-.4681
N4670G3X-.4359Y.5758I0J.0322
N4680G1X-.4363Y.5993
N4690G2X-.404Y.8654I1.0556J.0068
N4700G0Z2.35
N4710X.0257Y3.2231
N4720Z1.95
M#150
N4730G1X.0335Y3.2297Z1.9482F30.
N4740X.0424Y3.2384Z1.946
N4750X.0504Y3.2474Z1.9439
N4760X.0576Y3.2567Z1.9418
N4770X.064Y3.2661Z1.9398
N4780X.0695Y3.2755Z1.9379
N4790X.0744Y3.2849Z1.936
N4800X.0785Y3.2943Z1.9342
N4810X.0819Y3.3035Z1.9325
N4820X.0847Y3.3125Z1.9308
N4830X.087Y3.3213Z1.9292
N4840X.0887Y3.3298Z1.9277
N4850X.09Y3.3381Z1.9262
N4860X.0909Y3.3461Z1.9248
N4870X.0914Y3.3538Z1.9234
N4880X.0915Y3.3612Z1.9221
N4890X.0914Y3.3686Z1.9208
N4900X.0909Y3.3764Z1.9194
N4910X.09Y3.3844Z1.918
N4920X.0887Y3.3926Z1.9166
N4930X.087Y3.4012Z1.915
N4940X.0847Y3.41Z1.9134
N4950X.0819Y3.419Z1.9117
N4960X.0785Y3.4282Z1.91
N4970X.0744Y3.4375Z1.9082
N4980X.0695Y3.4469Z1.9064
N4990X.064Y3.4564Z1.9044
N5000X.0576Y3.4658Z1.9024
N5010X.0504Y3.475Z1.9004
N5020X.0424Y3.4841Z1.8982
N5030X.0335Y3.4928Z1.896
N5040X.0237Y3.5011Z1.8938
N5050X.0131Y3.5088Z1.8915
N5060X.0017Y3.5159Z1.8891
N5070X-.0105Y3.5223Z1.8867
N5080X-.0233Y3.5277Z1.8842
N5090X-.0367Y3.5322Z1.8817
N5100X-.0506Y3.5357Z1.8792
N5110X-.0649Y3.538Z1.8766
N5120X-.0793Y3.5392Z1.8741
N5130X-.0939Z1.8715
N5140X-.1083Y3.538Z1.869
N5150X-.1226Y3.5357Z1.8664
N5160X-.1365Y3.5322Z1.8639
N5170X-.1499Y3.5277Z1.8614
N5180X-.1627Y3.5223Z1.8589
N5190X-.1749Y3.5159Z1.8565
N5200X-.1863Y3.5088Z1.8541
N5210X-.1969Y3.5011Z1.8518
N5220X-.2067Y3.4928Z1.8496
N5230X-.2156Y3.4841Z1.8474
N5240X-.2236Y3.475Z1.8452
N5250X-.2308Y3.4658Z1.8432
N5260X-.2372Y3.4564Z1.8412
N5270X-.2427Y3.4469Z1.8392
N5280X-.2476Y3.4375Z1.8374
N5290X-.2517Y3.4282Z1.8356
N5300X-.2551Y3.419Z1.8339
N5310X-.2579Y3.41Z1.8322
N5320X-.2602Y3.4012Z1.8306
N5330X-.2619Y3.3926Z1.8291
N5340X-.2632Y3.3844Z1.8276
N5350X-.2641Y3.3764Z1.8262
N5360X-.2646Y3.3686Z1.8248
N5370X-.2647Y3.3612Z1.8235
N5380X-.2646Y3.3538Z1.8222
N5390X-.2641Y3.3461Z1.8208
N5400X-.2632Y3.3381Z1.8194
N5410X-.2619Y3.3298Z1.8179
N5420X-.2602Y3.3213Z1.8164
N5430X-.2579Y3.3125Z1.8148
N5440X-.2551Y3.3035Z1.8131
N5450X-.2517Y3.2943Z1.8114
N5460X-.2476Y3.2849Z1.8096
N5470X-.2427Y3.2755Z1.8077
N5480X-.2372Y3.2661Z1.8058
N5490X-.2308Y3.2567Z1.8038
N5500X-.2236Y3.2474Z1.8017
N5510X-.2156Y3.2384Z1.7996
N5520X-.2067Y3.2297Z1.7974
N5530X-.1969Y3.2214Z1.7951
N5540X-.1863Y3.2136Z1.7928
N5550X-.1749Y3.2065Z1.7904
N5560X-.1627Y3.2002Z1.788
N5570X-.1499Y3.1947Z1.7856
N5580X-.1365Y3.1902Z1.7831
N5590X-.1226Y3.1868Z1.7806
N5600X-.1083Y3.1844Z1.778
N5610X-.0939Y3.1832Z1.7754
N5620X-.0793Z1.7729
N5630X-.0649Y3.1844Z1.7703
N5640X-.0506Y3.1868Z1.7678
N5650X-.0367Y3.1902Z1.7653
N5660X-.0233Y3.1947Z1.7628
N5670X-.0105Y3.2002Z1.7603
N5680X.0017Y3.2065Z1.7579
N5690X.0131Y3.2136Z1.7555
N5700X.0237Y3.2214Z1.7532
N5710X.0335Y3.2297Z1.7509
N5720X.0424Y3.2384Z1.7487
N5730X.0504Y3.2474Z1.7466
N5740X.0576Y3.2567Z1.7445
N5750X.064Y3.2661Z1.7425
N5760X.0695Y3.2755Z1.7406
N5770X.0744Y3.2849Z1.7387
N5780X.0785Y3.2943Z1.737
N5790X.0819Y3.3035Z1.7352
N5800X.0847Y3.3125Z1.7336
N5810X.087Y3.3213Z1.732
N5820X.0887Y3.3298Z1.7304
N5830X.09Y3.3381Z1.7289
N5840X.0909Y3.3461Z1.7275
N5850X.0914Y3.3538Z1.7262
N5860X.0915Y3.3612Z1.7248
N5870X.0914Y3.3686Z1.7235
N5880X.0909Y3.3764Z1.7222
N5890X.09Y3.3844Z1.7208
N5900X.0887Y3.3926Z1.7193
N5910X.087Y3.4012Z1.7177
N5920X.0847Y3.41Z1.7161
N5930X.0819Y3.419Z1.7145
N5940X.0785Y3.4282Z1.7127
N5950X.0744Y3.4375Z1.711
N5960X.0695Y3.4469Z1.7091
N5970X.064Y3.4564Z1.7072
N5980X.0576Y3.4658Z1.7052
N5990X.0504Y3.475Z1.7031
N6000X.0424Y3.4841Z1.701
N6010X.0385Y3.4879Z1.7
N6020G3X-.0871Y3.4868I-.0623J-.0636
N6030X-.0866Y3.3612I.0633J-.0626
N6040G1X-.0769Y3.3515F205.
N6050G3X-.0501Y3.3635I.0111J.0111
N6060G1X-.0505Y3.3726
N6070G3X-.081Y3.403I-.032J-.0017
N6080G1X-.0903Y3.4035
N6090G3X-.1021Y3.3767I-.0008J-.0157
N6100G1X-.0866Y3.3612
N6110G2X-.1277Y3.3143I-.0221J-.0221
N6120G1X-.3923Y3.5171
N6130G3X-.4113Y3.5236I-.019J-.0248
N6140G1X-.4678
N6150G3X-.4739Y3.4994I0J-.0129
N6160G1X-.4561Y3.4896
N6170G2X.0151Y3.0369I-.5966J-1.0924
N6180G1X.0451Y2.9867
N6190G3X.0701Y2.9936I.0115J.0069
N6200G1Y3.49
N6210G3X.0365Y3.5236I-.0336J0
N6220G1X-.4113
N6230G2X-.5314Y3.5836I0J.1501
N6240G3X-.6516Y3.6437I-.1201J-.0901
N6250G1X-1.0111
N6260G3X-1.047Y3.6113I0J-.036
N6270G1X-1.0529Y3.5538
N6280G3X-1.0258Y3.5221I.0285J-.003
N6290G1X-.9982Y3.5208
N6300G2X-.0871Y2.9739I-.0552J-1.1244
N6310G1X.1521Y2.5736
N6320X.1658Y2.5499
N6330G3X.1902Y2.5564I.0113J.0065
N6340G1Y3.6102
N6350G3X.1566Y3.6437I-.0336J0
N6360G1X-.6516
N6370G2X-.7717Y3.7037I0J.1501
N6380G3X-.8918Y3.7638I-.1201J-.0901
N6390G1X-1.1324
N6400G3X-1.1642Y3.7312I0J-.0318
N6410G1X-1.1639Y3.7095
N6420G2X-1.1959Y3.4443I-1.0535J-.0075
N6430G1X-1.2017Y3.4212
N6440G3X-1.1787Y3.3946I.0208J-.0052
N6450G1X-1.1548Y3.397
N6460G2X-.1659Y2.8695I.1012J-1.001
N6470G1X-.085Y2.7181
N6480X.0196Y2.5595
N6490G2X.0986Y1.5683I-.8594J-.5672
N6500G1X.0903Y1.5499
N6510G3X.1096Y1.5318I.0127J-.0058
N6520G1X.1267Y1.5409
N6530G2X.2459Y1.5949I.4923J-.9285
N6540G1X.2776Y1.6069
N6550G3X.3104Y1.6544I-.018J.0474
N6560G1X.3103Y3.7303
N6570G3X.2768Y3.7639I-.0336J0
N6580G1X-.8918Y3.7638
N6590G2X-1.012Y3.8239I0J.1502
N6600G3X-1.1322Y3.884I-.1202J-.0901
N6610G1X-1.2574
N6620G3X-1.2893Y3.8508I0J-.0319
N6630G1X-1.2842Y3.7287
N6640X-1.284Y3.7193
N6650G2X-1.3971Y3.2558I-.9375J-.0168
N6660G1X-1.4065Y3.2385
N6670G3X-1.3888Y3.2178I.0128J-.0069
N6680G1X-1.359Y3.2285
N6690X-1.3363Y3.236
N6700X-1.3214Y3.2407
N6710G2X-.2419Y2.7513I.2677J-.8449
N6720G1X-.2026Y2.6616
N6730G3X-.1938Y2.6465I.0687J.0301
N6740G1X-.1133Y2.5397
N6750G2X-.2125Y1.3333I-.7268J-.5475
N6760G1X-.3284Y1.2228
N6770X-.3325Y1.2182
N6780X-.3743Y1.1671
N6790G2X-1.8663Y1.4907I-.6632J.5434
N6800G1X-1.9046Y1.635
N6810G2X-1.9714Y2.2066I1.9526J.5179
N6820G1X-1.9662Y2.3998
N6830G2X-1.8637Y2.7938I.9009J-.024
N6840G1X-1.8547Y2.8111
N6850G3X-1.8727Y2.8315I-.0129J.0068
N6860G1X-1.8904Y2.8248
N6870G2X-1.9683Y2.7991I-.3292J.8687
N6880G1X-1.9985Y2.7906
N6890G3X-2.0308Y2.7479I.012J-.0427
N6900G1X-2.0307Y.4562
N6910G3X-1.9972Y.4227I.0336J0
N6920G1X-.3432
N6930G3X-.3112Y.4559I0J.032
N6940G1X-.316Y.5787
N6950X-.3162Y.5898
N6960G2X.3672Y1.5086I.9382J.0158
N6970G1X.3982Y1.5174
N6980G3X.4305Y1.5601I-.012J.0427
N6990G1X.4304Y3.8505
N7000G3X.3969Y3.884I-.0336J0
N7010G1X-1.1322
N7020G2X-1.2523Y3.9441I0J.1502
N7030G3X-1.3725Y4.0041I-.1201J-.0901
N7040G1X-1.3837
N7050G3X-1.4147Y3.9714I0J-.031
N7060G1X-1.4123Y3.9286
N7070G2X-1.4055Y3.7699I-5.7838J-.3269
N7080G1X-1.4042Y3.7266
N7090G2X-2.09Y2.8949I-.8185J-.0238
N7100G1X-2.1192Y2.8901
N7110G3X-2.151Y2.8526I.0062J-.0375
N7120G1X-2.1509Y.3361
N7130G3X-2.1173Y.3025I.0336J0
N7140G1X-.2164
N7150G3X-.1855Y.3353I0J.031
N7160G1X-.1879Y.3774
N7170G2X-.1947Y.5382I5.5441J.3169
N7180G1X-.196Y.5825
N7190G2X.4897Y1.4131I.8181J.023
N7200G1X.5189Y1.4179
N7210G3X.5507Y1.4554I-.0061J.0374
N7220G1X.5506Y3.9706
N7230G3X.517Y4.0042I-.0336J0
N7240G1X-1.3725Y4.0041
N7250G2X-1.3949Y4.0136I0J.0312
N7260G1X-1.5008Y4.1225
N7270G3X-1.5539Y4.0948I-.0224J-.0218
N7280G1Y4.0945
N7290X-1.5538Y4.0942
N7300X-1.5489Y4.0718
N7310G2X-1.5344Y3.9599I-.6434J-.1404
N7320G1X-1.5245Y3.7332
N7330G2X-2.2221Y3.004I-.6983J-.0302
N7340G1X-2.2392
N7350G3X-2.2711Y2.9721I0J-.0319
N7360G1X-2.271Y.2159
N7370G3X-2.2374Y.1824I.0336J0
N7380G1X-.0703
N7390G3X-.0461Y.2125I0J.0247
N7400G1X-.0511Y.2349
N7410G2X-.0659Y.3486I.6434J.1419
N7420G1X-.0757Y.5754
N7430G2X.6224Y1.3039I.6979J.03
N7440G1X.6388
N7450G3X.6708Y1.3359I0J.032
N7460G1X.6707Y4.0907
N7470G3X.6372Y4.1243I-.0336J0
N7480G1X-1.5296
N7490G3X-1.5539Y4.0948I0J-.0248
N7500G2X-1.5942Y3.9303I-.2007J-.0381
N7510G3X-1.6462Y3.769I.1912J-.1507
N7520G1X-1.6444Y3.7281
N7530G2X-2.2388Y3.1242I-.5785J-.0251
N7540G1X-2.358Y3.1292
N7550G3X-2.3912Y3.0974I-.0014J-.0318
N7560G1X-2.3911Y.0958
N7570G3X-2.3576Y.0622I.0336J0
N7580G1X.1187Y.0623
N7590G3X.135Y.0903I0J.0187
N7600G1X.1252Y.1075
N7610G2X.0539Y.3545I.4736J.2704
N7620G1X.0442Y.5804
N7630G2X.6377Y1.1837I.5782J.0248
N7640G1X.7577Y1.1788
N7650G3X.7909Y1.2107I.0013J.0319
N7660G1X.7908Y4.2109
N7670G3X.7573Y4.2444I-.0336J0
N7680G1X-1.718
N7690G3X-1.7344Y4.2163I0J-.0188
N7700G1X-1.7246Y4.1991
N7710G2X-1.6542Y3.9539I-.4744J-.2688
N7720G1X-1.6462Y3.769
N7730G2X-1.7054Y3.6768I-.095J-.0041
N7740G3X-1.7771Y3.5939I.0453J-.1116
N7750G2X-2.2421Y3.2444I-.446J.1093
N7760G1X-2.4652Y3.2537
N7770X-2.4784Y3.2548
N7780G3X-2.5114Y3.2243I-.0024J-.0305
N7790G1X-2.5113Y-.0243
N7800G3X-2.4777Y-.0579I.0336J0
N7810G1X.4945Y-.0578
N7820G3X.4975Y-.036I0J.0111
N7830G1X.4842Y-.0323
N7840G2X.1738Y.36I.1159J.4106
N7850G1X.1641Y.5855
N7860G2X.6411Y1.0636I.4584J.0197
N7870G1X.8657Y1.0544
N7880X.8782Y1.0534
N7890G3X.9111Y1.0838I.0024J.0304
N7900G1X.911Y4.331
N7910G3X.8774Y4.3646I-.0336J0
N7920G1X-2.0885Y4.3645
N7930G3X-2.0917Y4.3426I0J-.0112
N7940G1X-2.0782Y4.3386
N7950G2X-1.7741Y3.9483I-.122J-.4087
N7960G1X-1.7643Y3.723
N7970G2X-1.7771Y3.5939I-.4587J-.0199
N7980G0Z2.35
N7990X.2207Y.8266
N8000Z1.85
N8010G1Z1.7F15.
N8020G2X.3159Y.8356I.0863J-.4043F205.
N8030G1X.3161
N8040G3X.4069Y.8663I.0031J.1406
N8050G1X.4132Y.8714
N8060X.4219Y.8777
N8070X.4347Y.8864
N8080X.4518Y.8965
N8090X.4608Y.9014
N8100X.4818Y.9111
N8110X.4955Y.9163
N8120X.5118Y.9218
N8130X.5268Y.9259
N8140X.5418Y.9291
N8150X.5542Y.9313
N8160X.5718Y.9334
N8170X.5868Y.9345
N8180X.6018Y.9347
N8190X.8567
N8200X.8717Y.9339
N8210X.8867Y.9325
N8220X.9017Y.9304
N8230X.9167Y.9274
N8240X.9316Y.9237
N8250X.9466Y.919
N8260X.9616Y.9137
N8270X.9766Y.9073
N8280X.9891Y.9014
N8290X1.0066Y.8917
N8300X1.0153Y.8864
N8310X1.0216Y.8821
N8320X1.0366Y.8714
N8330X1.0516Y.8591
N8340X1.0666Y.8451
N8350X1.0816Y.8289
N8360X1.0957Y.8114
N8370X1.1062Y.7964
N8380X1.1154Y.7814
N8390X1.1236Y.7664
N8400X1.1306Y.7514
N8410X1.1367Y.7364
N8420X1.1416Y.7227
N8430X1.1463Y.7064
N8440X1.1498Y.6914
N8450X1.1526Y.6764
N8460X1.1546Y.6615
N8470X1.1559Y.6465
N8480X1.1565Y.6315
N8490X1.1564Y.5265
N8500Y.3766
N8510X1.156Y.3616
N8520X1.1548Y.3466
N8530X1.1529Y.3316
N8540X1.1502Y.3166
N8550X1.1467Y.3016
N8560X1.1416Y.2838
N8570X1.1373Y.2716
N8580X1.1313Y.2566
N8590X1.1266Y.2463
N8600X1.1163Y.2266
N8610X1.1072Y.2116
N8620X1.0966Y.1962
N8630X1.0816Y.1775
N8640X1.0666Y.1614
N8650X1.0516Y.1474
N8660X1.0386Y.1367
N8670X1.0177Y.1217
N8680X1.0066Y.1148
N8690X.9916Y.1064
N8700X.9766Y.0991
N8710X.9616Y.0928
N8720X.9466Y.0874
N8730X.9316Y.0828
N8740X.9167Y.079
N8750X.9049Y.0767
N8760X.8867Y.0739
N8770X.8717Y.0725
N8780X.8567Y.0718
N8790X.6018Y.0717
N8800X.5868Y.072
N8810X.5718Y.073
N8820X.5568Y.0748
N8830X.545Y.0767
N8840X.5268Y.0806
N8850X.5118Y.0847
N8860X.4968Y.0896
N8870X.4818Y.0954
N8880X.4668Y.1021
N8890X.4518Y.1099
N8900X.4368Y.1187
N8910X.4219Y.1288
N8920X.4069Y.1401
N8930X.3936Y.1517
N8940X.3782Y.1667
N8950X.3647Y.1816
N8960X.353Y.1966
N8970X.3426Y.2116
N8980X.3336Y.2266
N8990X.3255Y.2416
N9000X.3186Y.2566
N9010X.3126Y.2716
N9020X.3074Y.2866
N9030X.3019Y.3064
N9040X.2997Y.3166
N9050X.2971Y.3316
N9060X.2951Y.3466
N9070X.294Y.3616
N9080X.2934Y.3766
N9090Y.6165
N9100X.2935Y.6315
N9110X.2941Y.6465
N9120X.2953Y.6615
N9130X.2973Y.6764
N9140X.3001Y.6914
N9150X.3036Y.7064
N9160X.308Y.7214
N9170X.3132Y.7364
N9180X.3169Y.746
N9190X.3264Y.7664
N9200X.3319Y.7769
N9210X.3437Y.7964
N9220X.3542Y.8114
N9230X.3661Y.8264
N9240X.3769Y.8384
N9250X.3919Y.8532
N9260X.4069Y.8663
N9270G0Z2.35
N9280X-.0488Y1.543
N9290Z1.85
N9300G1Z1.7F15.
N9310G2X-.156Y1.5148I-.1745J.4463F205.
N9320G3X-.2538Y1.4628I.0228J-.161
N9330G2X-.3458Y1.376I-.5864J.5294
N9340G1X-.413Y1.3221
N9350G3X-.4247Y1.3103I.0469J-.0585
N9360G1X-.477Y1.2447
N9370G2X-1.7093Y1.4277I-.5631J.4486
N9380G1X-1.7135Y1.4383
N9390X-1.7203Y1.4562
N9400X-1.7459Y1.5288
N9410G2X-1.8511Y2.1901I1.7565J.6182
N9420G1X-1.8463Y2.3935
N9430G2X-.793Y3.1098I.7825J-.0181
N9440G1X-.7633Y3.0988
N9450G2X-.3599Y2.7075I-.2401J-.6512
N9460G1X-.3137Y2.5931
N9470G3X-.2989Y2.5699I.0695J.0281
N9480G1X-.264Y2.5327
N9490G2X-.2538Y1.4628I-.5762J-.5405
N9500X-.4105Y1.4046I-.1341J.121
N9510G3X-.565Y1.3411I-.0212J-.1682
N9520G1X-.6085Y1.2857
N9530X-.6132Y1.2803
N9540X-.6435Y1.2489
N9550X-.6495Y1.2433
N9560G2X-1.1285Y1.104I-.3791J.4104
N9570G1X-1.1431Y1.1067
N9580G2X-1.6136Y1.5145I.1093J.6013
N9590G1X-1.6451Y1.609
N9600G2X-1.7299Y2.184I1.5762J.5262
N9610G1X-1.7236Y2.3998
N9620G2X-.8856Y3.0111I.656J-.0193
N9630G1X-.8445Y2.9993
N9640G2X-.4537Y2.613I-.1592J-.5519
N9650G1X-.4242Y2.5148
N9660X-.4235Y2.5134
N9670X-.4226Y2.5121
N9680X-.3502Y2.4415
N9690G2X-.1871Y2.1165I-.3891J-.3986
N9700G1X-.1826Y2.0829
N9710G2X-.4408Y1.4637I-.6602J-.0881
N9720G1X-.5017Y1.4176
N9730G3X-.5155Y1.4041I.0453J-.0598
N9740G1X-.565Y1.3411
N9750G2X-.67Y1.3092I-.0753J.0591
N9760G3X-.7785Y1.2933I-.0383J-.1172
N9770G2X-1.1087Y1.2224I-.2502J.3609
N9780G1X-1.1233Y1.2251
N9790G2X-1.5079Y1.5796I.0894J.4829
N9800G1X-1.5368Y1.6861
N9810X-1.5539Y1.7389
N9820G2X-1.6052Y2.0882I1.0048J.3258
N9830G1X-1.6033Y2.1734
N9840G3X-1.6016Y2.307I-6.9397J.1549
N9850G1X-1.6013Y2.3873
N9860G2X-.9535Y2.902I.5297J-.0016
N9870G1X-.9026Y2.8904
N9880G2X-.5529Y2.5043I-.1014J-.4432
N9890G1X-.5484Y2.4684
N9900G3X-.5209Y2.4232I.0643J.0081
N9910G1X-.4912Y2.4027
N9920G2X-.3025Y2.0586I-.2485J-.36
N9930G1X-.3004Y2.001
N9940G2X-.5496Y1.5384I-.5187J-.019
N9950G1X-.5885Y1.5148
N9960G3X-.6131Y1.4906I.0389J-.0641
N9970G1X-.654Y1.4255
N9980G2X-.6941Y1.3703I-.4302J.2703
N9990G1X-.7013Y1.3618
N10X-.7195Y1.3423
N20X-.7244Y1.3376
N30G2X-.7785Y1.2933I-.3044J.3166
N40X-.8931Y1.3001I-.053J.0764
N50G3X-1.0021Y1.3362I-.0967J-.1094
N60G2X-1.1002Y1.3431I-.0268J.3184
N70G1X-1.1185Y1.3473
N80G2X-1.4006Y1.6558I.082J.3583
N90G1X-1.4075Y1.7064
N100G3X-1.4127Y1.7253I-.0743J-.0102
N110G1X-1.4354Y1.7793
N120G2X-1.4787Y2.0116I.5128J.2157
N130G1X-1.4723Y2.2271
N140X-1.4718Y2.247
N150X-1.472Y2.4065
N160G2X-1.0661Y2.7866I.3804J.0005
N170G1X-.9905Y2.7815
N180X-.9751Y2.7802
N190X-.9597Y2.7786
N200X-.9463Y2.7769
N210X-.9408Y2.7758
N220G2X-.6716Y2.4083I-.0634J-.3287
N230G1X-.6745Y2.3833
N240G3X-.6536Y2.3492I.0321J-.0037
N250G1X-.6301Y2.3406
N260G2X-.4232Y2.0179I-.1098J-.2981
N270G1X-.4241Y2.0067
N280G2X-.4503Y1.8465I-.9526J.074
N290G1X-.4547Y1.8297
N300X-.4569Y1.8232
N310X-.46Y1.8157
N320G2X-.6386Y1.6298I-.3216J.1303
N330G1X-.6779Y1.612
N340G3X-.713Y1.5763I.0286J-.0633
N350G1X-.7277Y1.5424
N360G2X-.7912Y1.4412I-.3601J.1557
N370G1X-.7987Y1.4329
N380X-.8024Y1.4292
N390G2X-1.0021Y1.3362I-.2265J.2254
N400X-1.0873Y1.4032I-.0068J.0791
N410G1X-1.0874Y1.4034
N420G3X-1.148Y1.4934I-.1259J-.0194
N430G1X-1.1675Y1.5051
N440X-1.1825Y1.5146
N450X-1.1975Y1.5258
N460X-1.2125Y1.5377
N470X-1.2215Y1.5461
N480X-1.2275Y1.5522
N490X-1.2353Y1.5611
N500X-1.2425Y1.5704
N510X-1.2464Y1.5761
N520X-1.2554Y1.5911
N530X-1.2629Y1.6061
N540X-1.2687Y1.6211
N550X-1.2735Y1.6361
N560X-1.277Y1.651
N570X-1.2795Y1.666
N580X-1.2807Y1.681
N590Y1.696
N600X-1.2796Y1.711
N610X-1.2772Y1.726
N620X-1.2735Y1.741
N630X-1.2729Y1.7426
N640X-1.2725Y1.744
N650X-1.2722Y1.7454
N660Y1.7455
N670G3X-1.2777Y1.763I-.0184J.0038
N680G1X-1.2863Y1.771
N690X-1.2995Y1.786
N700X-1.3024Y1.7897
N710X-1.3103Y1.801
N720X-1.3193Y1.816
N730X-1.3265Y1.831
N740X-1.3324Y1.846
N750X-1.3376Y1.861
N760X-1.3417Y1.876
N770X-1.3445Y1.8909
N780X-1.3466Y1.9059
N790X-1.3474Y1.9149
N800X-1.3491Y1.9809
N810X-1.3497Y2.0409
N820X-1.3494Y2.0859
N830X-1.3487Y2.1308
N840X-1.3474Y2.1518
N850X-1.3443Y2.1758
N860X-1.3435Y2.1805
N870X-1.3433Y2.1819
N880X-1.3432Y2.1833
N890X-1.3429Y2.2058
N900X-1.3417Y2.2358
N910X-1.3419Y2.2508
N920X-1.343Y2.2808
N930X-1.3433Y2.3108
N940X-1.344Y2.3408
N950X-1.3436Y2.3707
N960X-1.3433Y2.4307
N970X-1.3429Y2.4457
N980X-1.342Y2.4607
N990X-1.3396Y2.4757
N1000X-1.3362Y2.4907
N1010X-1.3324Y2.5033
N1020X-1.3254Y2.5207
N1030X-1.3182Y2.5357
N1040X-1.3089Y2.5507
N1050X-1.3024Y2.5597
N1060X-1.2977Y2.5657
N1070X-1.2874Y2.5773
N1080X-1.2842Y2.5807
N1090X-1.2679Y2.5957
N1100X-1.2575Y2.6037
N1110X-1.2478Y2.6107
N1120X-1.2275Y2.6226
N1130X-1.2212Y2.6256
N1140X-1.1975Y2.6362
N1150X-1.1858Y2.6406
N1160X-1.1675Y2.6464
N1170X-1.1525Y2.6501
N1180X-1.1375Y2.6534
N1190X-1.1256Y2.6556
N1200X-1.1075Y2.658
N1210X-1.0775Y2.6609
N1220X-1.0475Y2.6622
N1230X-1.0176
N1240X-.9876Y2.6612
N1250X-.9726Y2.6596
N1260X-.9523Y2.6556
N1270X-.9426Y2.653
N1280X-.9276Y2.648
N1290X-.9126Y2.6417
N1300X-.8976Y2.634
N1310X-.8839Y2.6256
N1320X-.8676Y2.6136
N1330X-.8641Y2.6107
N1340X-.8526Y2.6001
N1350X-.8483Y2.5957
N1360X-.8376Y2.5835
N1370X-.8245Y2.5657
N1380X-.8156Y2.5507
N1390X-.8083Y2.5357
N1400X-.8023Y2.5207
N1410X-.7976Y2.5057
N1420X-.794Y2.4907
N1430X-.7926Y2.4831
N1440X-.7917Y2.4757
N1450X-.7904Y2.4607
N1460X-.79Y2.4457
N1470X-.7905Y2.4307
N1480X-.7921Y2.4157
N1490X-.7946Y2.4007
N1500X-.7981Y2.3857
N1510X-.8026Y2.3707
N1520X-.8076Y2.3572
N1530X-.8152Y2.3408
N1540X-.8232Y2.3258
N1550X-.833Y2.3108
N1560X-.8443Y2.2958
N1570X-.8526Y2.2862
N1580X-.8577Y2.2808
N1590X-.8676Y2.2713
N1600X-.8738Y2.2658
N1610X-.8826Y2.2586
N1620X-.8933Y2.2508
N1630X-.8985Y2.2476
N1640G3X-.8984Y2.2157I.0099J-.0159
N1650G1X-.8976Y2.2152
N1660X-.8929Y2.2119
N1670G3X-.8745Y2.2102I.0107J.0154
N1680G1X-.8676Y2.2133
N1690X-.8526Y2.219
N1700X-.847Y2.2208
N1710X-.8076Y2.2316
N1720X-.7926Y2.235
N1730X-.7777Y2.2378
N1740X-.7627Y2.2396
N1750X-.7477Y2.2405
N1760X-.7327Y2.2403
N1770X-.7177Y2.239
N1780X-.7027Y2.2367
N1790X-.6983Y2.2358
N1800X-.6877Y2.2331
N1810X-.6727Y2.2283
N1820X-.6577Y2.2225
N1830X-.6427Y2.215
N1840X-.6279Y2.2058
N1850X-.6127Y2.1944
N1860X-.6086Y2.1908
N1870X-.5977Y2.1805
N1880X-.5935Y2.1758
N1890X-.5811Y2.1608
N1900X-.5711Y2.1458
N1910X-.563Y2.1308
N1920X-.5564Y2.1159
N1930X-.5513Y2.1009
N1940X-.5474Y2.0859
N1950X-.5445Y2.0709
N1960X-.5428Y2.0559
N1970X-.5423Y2.0409
N1980X-.5429Y2.0259
N1990X-.5459Y1.9959
N2000X-.5478Y1.9809
N2010X-.5543Y1.9359
N2020X-.5624Y1.8909
N2030X-.566Y1.876
N2040X-.5677Y1.8699
N2050X-.571Y1.861
N2060X-.5774Y1.846
N2070X-.5827Y1.8353
N2080X-.5852Y1.831
N2090X-.595Y1.816
N2100X-.5977Y1.8123
N2110X-.6068Y1.801
N2120X-.6127Y1.794
N2130X-.6203Y1.786
N2140X-.6277Y1.7789
N2150X-.6369Y1.771
N2160X-.6427Y1.7665
N2170X-.658Y1.756
N2180X-.6727Y1.7477
N2190X-.6877Y1.7399
N2200X-.7027Y1.7331
N2210X-.7226Y1.726
N2220X-.7327Y1.7234
N2230X-.7477Y1.7202
N2240X-.7627Y1.7182
N2250X-.7777Y1.7173
N2260X-.7926Y1.7172
N2270X-.7969Y1.7176
N2280G3X-.8171Y1.6974I-.0015J-.0187
N2290G1X-.817Y1.696
N2300X-.8168Y1.681
N2310X-.8176Y1.666
N2320X-.8195Y1.651
N2330X-.8226Y1.6358
N2340X-.8269Y1.6211
N2350X-.832Y1.6061
N2360X-.8376Y1.5921
N2370X-.8448Y1.5761
N2380X-.8523Y1.5611
N2390X-.8613Y1.5461
N2400X-.8676Y1.5369
N2410X-.8721Y1.5311
N2420X-.8826Y1.5188
N2430X-.8976Y1.5044
N2440X-.9015Y1.5011
N2450X-.9126Y1.4926
N2460X-.9276Y1.4831
N2470X-.9426Y1.4752
N2480X-.9576Y1.469
N2490X-.9726Y1.4636
N2500X-.9876Y1.4595
N2510X-1.0026Y1.4568
N2520X-1.0082Y1.4561
N2530X-1.0176Y1.4552
N2540X-1.0325Y1.4548
N2550X-1.0475Y1.4556
N2560X-1.0625Y1.4575
N2570X-1.0775Y1.4607
N2580X-1.0925Y1.4653
N2590X-1.1074Y1.4711
N2600X-1.1225Y1.4786
N2610X-1.1358Y1.4861
N2620X-1.148Y1.4934
N2630G0Z2.35
M#150
N2640X-2.3338Y4.4175
N2650Z1.95
N2660G1X-2.3365Y4.4246Z1.9487F30.
N2670X-2.3406Y4.4339Z1.9469
N2680X-2.3454Y4.4434Z1.945
N2690X-2.351Y4.4528Z1.9431
N2700X-2.3573Y4.4622Z1.9411
N2710X-2.3645Y4.4715Z1.939
N2720X-2.3726Y4.4805Z1.9369
N2730X-2.3815Y4.4892Z1.9347
N2740X-2.3912Y4.4975Z1.9324
N2750X-2.4018Y4.5052Z1.9301
N2760X-2.4133Y4.5123Z1.9277
N2770X-2.4254Y4.5187Z1.9253
N2780X-2.4383Y4.5241Z1.9229
N2790X-2.4517Y4.5286Z1.9204
N2800X-2.4656Y4.5321Z1.9178
N2810X-2.4798Y4.5344Z1.9153
N2820X-2.4943Y4.5356Z1.9127
N2830X-2.5088Z1.9102
N2840X-2.5233Y4.5344Z1.9076
N2850X-2.5375Y4.5321Z1.9051
N2860X-2.5514Y4.5286Z1.9025
N2870X-2.5649Y4.5241Z1.9
N2880X-2.5777Y4.5187Z1.8976
N2890X-2.5899Y4.5123Z1.8952
N2900X-2.6013Y4.5052Z1.8928
N2910X-2.6119Y4.4975Z1.8905
N2920X-2.6216Y4.4892Z1.8882
N2930X-2.6305Y4.4805Z1.886
N2940X-2.6386Y4.4715Z1.8839
N2950X-2.6458Y4.4622Z1.8818
N2960X-2.6521Y4.4528Z1.8798
N2970X-2.6577Y4.4434Z1.8779
N2980X-2.6625Y4.4339Z1.876
N2990X-2.6666Y4.4246Z1.8742
N3000X-2.67Y4.4154Z1.8725
N3010X-2.6729Y4.4064Z1.8708
N3020X-2.6751Y4.3976Z1.8692
N3030X-2.6769Y4.3891Z1.8677
N3040X-2.6782Y4.3808Z1.8662
N3050X-2.679Y4.3728Z1.8648
N3060X-2.6795Y4.3651Z1.8634
N3070X-2.6797Y4.3576Z1.8621
N3080X-2.6795Y4.3502Z1.8608
N3090X-2.679Y4.3425Z1.8595
N3100X-2.6782Y4.3345Z1.858
N3110X-2.6769Y4.3262Z1.8566
N3120X-2.6751Y4.3177Z1.855
N3130X-2.6729Y4.3089Z1.8534
N3140X-2.67Y4.2999Z1.8518
N3150X-2.6666Y4.2907Z1.85
N3160X-2.6625Y4.2814Z1.8482
N3170X-2.6577Y4.2719Z1.8464
N3180X-2.6521Y4.2625Z1.8444
N3190X-2.6458Y4.2531Z1.8424
N3200X-2.6386Y4.2438Z1.8404
N3210X-2.6305Y4.2348Z1.8382
N3220X-2.6216Y4.2261Z1.836
N3230X-2.6119Y4.2178Z1.8338
N3240X-2.608Y4.215Z1.8329
N3250X-2.6017Y4.2113Z1.8317
N3260X-2.5947Y4.2089Z1.8303
N3270X-2.5872Y4.2081Z1.829
N3280X-2.5798Y4.2088Z1.8277
N3290X-2.5729Y4.211Z1.8264
N3300X-2.5629Y4.2153Z1.8245
N3310X-2.547Y4.221Z1.8215
N3320X-2.532Y4.2256Z1.8188
N3330X-2.517Y4.2293Z1.816
N3340X-2.502Y4.2323Z1.8133
N3350X-2.487Y4.2345Z1.8107
N3360X-2.472Y4.2359Z1.808
N3370X-2.457Y4.2366Z1.8054
N3380X-2.3875Y4.2367Z1.7931
N3390X-2.3796Y4.2376Z1.7917
N3400X-2.3719Y4.2403Z1.7903
N3410X-2.365Y4.2447Z1.7888
N3420X-2.3594Y4.2504Z1.7874
N3430X-2.3573Y4.2531Z1.7868
N3440X-2.351Y4.2625Z1.7848
N3450X-2.3454Y4.2719Z1.7829
N3460X-2.3406Y4.2814Z1.781
N3470X-2.3365Y4.2907Z1.7792
N3480X-2.3331Y4.2999Z1.7775
N3490X-2.3302Y4.3089Z1.7758
N3500X-2.328Y4.3177Z1.7742
N3510X-2.3262Y4.3262Z1.7727
N3520X-2.3249Y4.3345Z1.7712
N3530X-2.3241Y4.3425Z1.7698
N3540X-2.3236Y4.3502Z1.7684
N3550X-2.3234Y4.3576Z1.7671
N3560X-2.3236Y4.3651Z1.7658
N3570X-2.3241Y4.3728Z1.7645
N3580X-2.3249Y4.3808Z1.763
N3590X-2.3262Y4.3891Z1.7616
N3600X-2.328Y4.3976Z1.76
N3610X-2.3302Y4.4064Z1.7584
N3620X-2.3331Y4.4154Z1.7568
N3630X-2.3365Y4.4246Z1.755
N3640X-2.3406Y4.4339Z1.7532
N3650X-2.3454Y4.4434Z1.7514
N3660X-2.351Y4.4528Z1.7494
N3670X-2.3573Y4.4622Z1.7474
N3680X-2.3645Y4.4715Z1.7454
N3690X-2.3726Y4.4805Z1.7432
N3700X-2.3815Y4.4892Z1.741
N3710X-2.3912Y4.4975Z1.7388
N3720X-2.4018Y4.5052Z1.7365
N3730X-2.4133Y4.5123Z1.7341
N3740X-2.4254Y4.5187Z1.7317
N3750X-2.4383Y4.5241Z1.7292
N3760X-2.4517Y4.5286Z1.7267
N3770X-2.4656Y4.5321Z1.7242
N3780X-2.4798Y4.5344Z1.7217
N3790X-2.4943Y4.5356Z1.7191
N3800X-2.5088Z1.7165
N3810X-2.5233Y4.5344Z1.714
N3820X-2.5375Y4.5321Z1.7114
N3830X-2.5514Y4.5286Z1.7089
N3840X-2.5649Y4.5241Z1.7064
N3850X-2.5777Y4.5187Z1.7039
N3860X-2.5899Y4.5123Z1.7015
N3870X-2.5972Y4.5078Z1.7
N3880G3X-2.6252Y4.3844I.047J-.0755
N3890X-2.5016Y4.3576I.0751J.0479
N3900X-2.5022Y4.3602I-.0006J.0012F205.
N3910G1X-2.5053Y4.3601
N3920X-2.5059Y4.3598
N3930X-2.5062Y4.3591
N3940Y4.3582
N3950G3X-2.5051Y4.3572I.001J0
N3960G1X-2.502Y4.3575
N3970X-2.5018Y4.3576
N3980X-2.5016
N3990G0Z2.35
N4000X-1.879Y3.3991
N4010Z1.85
N4020G1Z1.7F15.
N4030G2X-1.9709Y3.4129I.0135J.4014F205.
N4040G1X-1.9711Y3.413
N4050G3X-2.0639Y3.4053I-.0359J-.1318
N4060G1X-2.0821Y3.397
N4070X-2.0971Y3.3913
N4080X-2.1121Y3.3863
N4090X-2.1271Y3.3822
N4100X-2.1421Y3.379
N4110X-2.1571Y3.3764
N4120X-2.1652Y3.3753
N4130X-2.1871Y3.3736
N4140X-2.2021Y3.3734
N4150X-2.457Y3.3735
N4160X-2.472Y3.3742
N4170X-2.4851Y3.3753
N4180X-2.5019Y3.3778
N4190X-2.5169Y3.3807
N4200X-2.5319Y3.3844
N4210X-2.5469Y3.3891
N4220X-2.5619Y3.3944
N4230X-2.5769Y3.4008
N4240X-2.5919Y3.4081
N4250X-2.6069Y3.4165
N4260X-2.6219Y3.426
N4270X-2.6351Y3.4353
N4280X-2.6519Y3.4491
N4290X-2.6669Y3.463
N4300X-2.6819Y3.4792
N4310X-2.6949Y3.4953
N4320X-2.7056Y3.5103
N4330X-2.7149Y3.5253
N4340X-2.7232Y3.5403
N4350X-2.7302Y3.5553
N4360X-2.7364Y3.5703
N4370X-2.7418Y3.5854
N4380X-2.7462Y3.6002
N4390X-2.7498Y3.6152
N4400X-2.7527Y3.6302
N4410X-2.7547Y3.6452
N4420X-2.7561Y3.6602
N4430X-2.7567Y3.6752
N4440Y3.9151
N4450X-2.7568Y3.9301
N4460X-2.7563Y3.9451
N4470X-2.7553Y3.9601
N4480X-2.7534Y3.9751
N4490X-2.7508Y3.9901
N4500X-2.7474Y4.0051
N4510X-2.7431Y4.0201
N4520X-2.7381Y4.0351
N4530X-2.7322Y4.0501
N4540X-2.7269Y4.0618
N4550X-2.7174Y4.08
N4560X-2.7084Y4.095
N4570X-2.6982Y4.11
N4580X-2.6865Y4.125
N4590X-2.6819Y4.1306
N4600X-2.6733Y4.14
N4610X-2.6669Y4.1467
N4620X-2.6519Y4.1607
N4630X-2.6369Y4.173
N4640X-2.6219Y4.1838
N4650X-2.6069Y4.1933
N4660X-2.5952Y4.2
N4670X-2.5769Y4.2089
N4680X-2.5628Y4.215
N4690X-2.5469Y4.2207
N4700X-2.5319Y4.2253
N4710X-2.5169Y4.2291
N4720X-2.5019Y4.232
N4730X-2.487Y4.2342
N4740X-2.472Y4.2356
N4750X-2.457Y4.2363
N4760X-2.2021Y4.2364
N4770X-2.1871Y4.2361
N4780X-2.1721Y4.2351
N4790X-2.1571Y4.2333
N4800X-2.1421Y4.2308
N4810X-2.1271Y4.2275
N4820X-2.1121Y4.2235
N4830X-2.0971Y4.2185
N4840X-2.0821Y4.2127
N4850X-2.0671Y4.2059
N4860X-2.0554Y4.2
N4870X-2.0371Y4.1894
N4880X-2.0303Y4.185
N4890X-2.0221Y4.1793
N4900X-2.0097Y4.17
N4910X-1.9922Y4.155
N4920X-1.9771Y4.14
N4930X-1.9639Y4.125
N4940X-1.9523Y4.11
N4950X-1.9419Y4.095
N4960X-1.933Y4.08
N4970X-1.9251Y4.0651
N4980X-1.9182Y4.0501
N4990X-1.9124Y4.0351
N5000X-1.9073Y4.0201
N5010X-1.9031Y4.0051
N5020X-1.8996Y3.9901
N5030X-1.8971Y3.9751
N5040X-1.8952Y3.9601
N5050X-1.8941Y3.9451
N5060X-1.8937Y3.9301
N5070X-1.8938Y3.8851
N5080Y3.6752
N5090X-1.8944Y3.6602
N5100X-1.8957Y3.6452
N5110X-1.8977Y3.6302
N5120X-1.9006Y3.6152
N5130X-1.9042Y3.6002
N5140X-1.9087Y3.5853
N5150X-1.914Y3.5703
N5160X-1.9172Y3.5621
N5170X-1.9202Y3.5553
N5180X-1.9274Y3.5403
N5190X-1.9355Y3.5253
N5200X-1.9449Y3.5103
N5210X-1.9555Y3.4953
N5220X-1.9676Y3.4803
N5230X-1.9813Y3.4653
N5240X-1.9922Y3.4548
N5250X-2.0072Y3.4419
N5260X-2.0154Y3.4353
N5270X-2.0221Y3.4304
N5280X-2.0371Y3.4203
N5290X-2.0521Y3.4115
N5300X-2.0639Y3.4053
N5310G0Z2.35
N5320X-2.6214Y3.4257
M#150
N5330Z1.85
N5340G1Z1.7F15.
N5350G2X-2.6276Y3.4161I-.0442J.0221F205.
N5360G3X-2.6315Y3.4053I.0129J-.0108
N5370G1Y-.0012
N5380G2X-2.7206Y-.1374I-.1486J0
N5390G3X-2.7508Y-.2973I.0395J-.0903
N5400X-2.5909Y-.2671I.0697J.0697
N5410G2X-2.4547Y-.178I.1362J-.0595
N5420G1X.8544
N5430G2X.9906Y-.2671I0J-.1486
N5440G3X1.1505Y-.2973I.0903J.0395
N5450X1.1203Y-.1374I-.0697J.0697
N5460G2X1.0312Y-.0012I.0595J.1362
N5470G1Y.1313
N5480G0Z2.35
N5490Y.8753
N5500Z1.85
N5510G1Z1.7F15.
N5520F205.
N5530Y4.3079
N5540G2X1.1203Y4.4441I.1486J0
N5550G3X1.1505Y4.604I-.0395J.0903
N5560X.9906Y4.5738I-.0697J-.0697
N5570G2X.8544Y4.4847I-.1362J.0595
N5580G1X-2.4547
N5590G2X-2.5909Y4.5738I0J.1486
N5600G3X-2.7508Y4.604I-.0903J-.0395
N5610X-2.7206Y4.4441I.0697J-.0697
N5620G2X-2.6315Y4.3079I-.0595J-.1362
N5630G1Y4.177
N5640G0Z2.35
N5650Y3.4327
N5660Z1.85
M#150
N5670G1Z1.7F15.
N5680F205.
N5690Y3.4053
N5700G0Z2.35
N5710X-2.327Y3.8806
N5720Z1.95
N5730G1X-2.3349Y3.8809Z1.9486F30.
N5740X-2.343Y3.882Z1.9472
N5750X-2.3511Y3.884Z1.9457
N5760X-2.3591Y3.8868Z1.9442
N5770X-2.367Y3.8905Z1.9427
N5780X-2.3745Y3.895Z1.9411
N5790X-2.3816Y3.9004Z1.9395
N5800X-2.3881Y3.9064Z1.938
N5810X-2.3939Y3.9131Z1.9364
N5820X-2.399Y3.9203Z1.9349
N5830X-2.4032Y3.9279Z1.9333
N5840X-2.4066Y3.9358Z1.9318
N5850X-2.4091Y3.9437Z1.9304
N5860X-2.4108Y3.9516Z1.9289
N5870X-2.4123Y3.965Z1.9265
N5880X-2.4144Y3.9738Z1.9249
N5890X-2.4166Y3.9799Z1.9238
N5900X-2.4196Y3.9859Z1.9226
N5910X-2.4233Y3.9918Z1.9214
N5920X-2.4278Y3.9975Z1.9201
N5930X-2.4331Y4.0027Z1.9188
N5940X-2.4391Y4.0074Z1.9175
N5950X-2.4457Y4.0113Z1.9161
N5960X-2.4528Y4.0145Z1.9147
N5970X-2.4602Y4.0168Z1.9134
N5980X-2.4678Y4.0181Z1.912
N5990X-2.4754Y4.0185Z1.9107
N6000X-2.4828Y4.0181Z1.9094
N6010X-2.49Y4.0168Z1.9081
N6020X-2.4967Y4.0148Z1.9069
N6030X-2.5028Y4.0122Z1.9057
N6040X-2.5085Y4.0091Z1.9045
N6050X-2.5158Y4.0038Z1.9029
N6060X-2.5219Y3.9979Z1.9014
N6070X-2.5274Y3.991Z1.8999
N6080X-2.5308Y3.9857Z1.8988
N6090X-2.5336Y3.9798Z1.8976
N6100X-2.536Y3.9733Z1.8964
N6110X-2.5376Y3.9664Z1.8952
N6120X-2.5385Y3.9591Z1.8939
N6130X-2.5386Y3.9516Z1.8925
N6140X-2.5377Y3.944Z1.8912
N6150X-2.5359Y3.9365Z1.8898
N6160X-2.5332Y3.9292Z1.8884
N6170X-2.5297Y3.9223Z1.8871
N6180X-2.5253Y3.916Z1.8857
N6190X-2.5204Y3.9103Z1.8844
N6200X-2.5149Y3.9054Z1.8831
N6210X-2.5091Y3.9012Z1.8819
N6220X-2.5032Y3.8979Z1.8806
N6230X-2.4971Y3.8953Z1.8795
N6240X-2.4911Y3.8934Z1.8784
N6250X-2.4825Y3.8918Z1.8768
N6260X-2.4719Y3.8906Z1.8749
N6270X-2.464Y3.8889Z1.8735
N6280X-2.456Y3.8863Z1.872
N6290X-2.4482Y3.883Z1.8705
N6300X-2.4406Y3.8787Z1.869
N6310X-2.4334Y3.8737Z1.8675
N6320X-2.4267Y3.8678Z1.8659
N6330X-2.4207Y3.8613Z1.8643
N6340X-2.4153Y3.8542Z1.8628
N6350X-2.4108Y3.8467Z1.8612
N6360X-2.4071Y3.8388Z1.8597
N6370X-2.4043Y3.8307Z1.8582
N6380X-2.4023Y3.8226Z1.8567
N6390X-2.4012Y3.8146Z1.8553
N6400X-2.4009Y3.8068Z1.8539
N6410X-2.4008Y3.7293Z1.8402
N6420X-2.3945Y3.7222Z1.8386
N6430X-2.3899Y3.7159Z1.8372
N6440X-2.3857Y3.7086Z1.8357
N6450X-2.3819Y3.7003Z1.8341
N6460X-2.3789Y3.691Z1.8323
N6470X-2.3769Y3.6807Z1.8305
N6480X-2.3762Y3.6733Z1.8292
N6490X-2.3763Y3.6656Z1.8278
N6500X-2.377Y3.6577Z1.8264
N6510X-2.3786Y3.6496Z1.825
N6520X-2.381Y3.6415Z1.8235
N6530X-2.3843Y3.6335Z1.822
N6540X-2.3885Y3.6258Z1.8204
N6550X-2.3936Y3.6184Z1.8188
N6560X-2.3994Y3.6116Z1.8173
N6570X-2.4059Y3.6054Z1.8157
N6580X-2.413Y3.6Z1.8141
N6590X-2.4206Y3.5954Z1.8125
N6600X-2.4285Y3.5917Z1.811
N6610X-2.4366Y3.5888Z1.8095
N6620X-2.4447Y3.5869Z1.808
N6630X-2.4527Y3.5857Z1.8066
N6640X-2.4605Y3.5854Z1.8052
N6650X-2.468Y3.5857Z1.8039
N6660X-2.4752Y3.5866Z1.8026
N6670X-2.4852Y3.589Z1.8008
N6680X-2.4942Y3.5923Z1.7991
N6690X-2.5021Y3.5963Z1.7975
N6700X-2.5091Y3.6007Z1.7961
N6710X-2.5169Y3.607Z1.7943
N6720X-2.5234Y3.6134Z1.7927
N6730X-2.5295Y3.6212Z1.791
N6740X-2.5339Y3.628Z1.7895
N6750X-2.5378Y3.6358Z1.788
N6760X-2.5411Y3.6446Z1.7863
N6770X-2.5435Y3.6544Z1.7845
N6780X-2.5445Y3.6615Z1.7833
N6790X-2.5449Y3.6688Z1.782
N6800X-2.5446Y3.6765Z1.7806
N6810X-2.5436Y3.6844Z1.7792
N6820X-2.5418Y3.6924Z1.7778
N6830X-2.5392Y3.7004Z1.7763
N6840X-2.5356Y3.7082Z1.7748
N6850X-2.5313Y3.7157Z1.7733
N6860X-2.5261Y3.7229Z1.7717
N6870X-2.5201Y3.7295Z1.7701
N6880X-2.5135Y3.7354Z1.7686
N6890X-2.5064Y3.7406Z1.767
N6900X-2.4988Y3.7449Z1.7655
N6910X-2.491Y3.7484Z1.764
N6920X-2.483Y3.7511Z1.7625
N6930X-2.475Y3.7528Z1.761
N6940X-2.4671Y3.7538Z1.7596
N6950X-2.4595Y3.7541Z1.7583
N6960X-2.4521Y3.7537Z1.757
N6970X-2.4417Y3.752Z1.7551
N6980X-2.4322Y3.7492Z1.7534
N6990X-2.4238Y3.7457Z1.7518
N7000X-2.4163Y3.7416Z1.7503
N7010X-2.4098Y3.7371Z1.7489
N7020X-2.4024Y3.7309Z1.7472
N7030X-2.4008Y3.7293Z1.7468
N7040F205.
N7050X-2.4007
N7060X-2.3234Y3.7292
N7070G2X-2.2386Y3.6504I0J-.085
N7080G3X-2.1301Y3.6101I.0635J.0046
N7090X-2.1707Y3.7184I-.045J.0449
N7100G2X-2.2496Y3.803I.0059J.0846
N7110G1Y3.8068
N7120G2X-2.1706Y3.8913I.0846J0
N7130G3X-2.1298Y3.9994I-.0043J.0634
N7140X-2.2385Y3.9593I-.0452J-.0448
N7150G2X-2.3233Y3.8806I-.0849J.0064
N7160G1X-2.3271
N7170G2X-2.4117Y3.9594I0J.0848
N7180G3X-2.52Y4.0I-.0634J-.0044
N7190X-2.4797Y3.8915I.0449J-.045
N7200G2X-2.4009Y3.8068I-.0061J-.0847
N7210G1Y3.7294
N7220X-2.4008
N7230Y3.7293
N7240G2X-2.5203Y3.6101I-.0597J-.0596
N7250X-2.4008Y3.7293I.0597J.0596
N7260G0Z2.35
N7270X.87Y.4179
N7280Z1.95
N7290G1X.8637Y.4193Z1.9489F30.
N7300X.8558Y.4218Z1.9474
N7310X.848Y.4252Z1.9459
N7320X.8404Y.4294Z1.9444
N7330X.8332Y.4345Z1.9428
N7340X.8265Y.4403Z1.9412
N7350X.8204Y.4469Z1.9397
N7360X.8151Y.4539Z1.9381
N7370X.8105Y.4615Z1.9365
N7380X.8069Y.4694Z1.935
N7390X.804Y.4774Z1.9335
N7400X.8021Y.4855Z1.932
N7410X.8009Y.4935Z1.9306
N7420X.8006Y.505Z1.9286
N7430X.8009Y.5129Z1.9272
N7440X.8021Y.5209Z1.9258
N7450X.804Y.529Z1.9243
N7460X.8068Y.5371Z1.9228
N7470X.8105Y.5449Z1.9213
N7480X.8151Y.5525Z1.9197
N7490X.8204Y.5596Z1.9181
N7500X.8265Y.5661Z1.9166
N7510X.8332Y.5719Z1.915
N7520X.8404Y.5769Z1.9135
N7530X.848Y.5812Z1.9119
N7540X.8558Y.5845Z1.9104
N7550X.8638Y.5871Z1.909
N7560X.8717Y.5888Z1.9075
N7570X.8851Y.5903Z1.9051
N7580X.8939Y.5924Z1.9035
N7590X.8999Y.5946Z1.9024
N7600X.906Y.5975Z1.9012
N7610X.9119Y.6013Z1.9
N7620X.9175Y.6058Z1.8987
N7630X.9228Y.6111Z1.8974
N7640X.9274Y.6171Z1.8961
N7650X.9314Y.6237Z1.8947
N7660X.9346Y.6308Z1.8933
N7670X.9369Y.6382Z1.892
N7680X.9382Y.6458Z1.8906
N7690X.9386Y.6534Z1.8893
N7700X.9381Y.6608Z1.888
N7710X.9369Y.6679Z1.8867
N7720X.9349Y.6746Z1.8854
N7730X.9323Y.6808Z1.8843
N7740X.9292Y.6864Z1.8831
N7750X.9239Y.6938Z1.8815
N7760X.918Y.6999Z1.88
N7770X.9111Y.7054Z1.8785
N7780X.9058Y.7087Z1.8774
N7790X.8999Y.7116Z1.8762
N7800X.8934Y.714Z1.875
N7810X.8865Y.7156Z1.8737
N7820X.8792Y.7165Z1.8725
N7830X.8717Y.7166Z1.8711
N7840X.8641Y.7157Z1.8698
N7850X.8565Y.7139Z1.8684
N7860X.8493Y.7112Z1.867
N7870X.8424Y.7077Z1.8657
N7880X.836Y.7033Z1.8643
N7890X.8304Y.6984Z1.863
N7900X.8254Y.6929Z1.8617
N7910X.8213Y.6872Z1.8604
N7920X.8179Y.6812Z1.8592
N7930X.8153Y.6751Z1.8581
N7940X.8135Y.6691Z1.857
N7950X.8118Y.6605Z1.8554
N7960X.8106Y.6499Z1.8535
N7970X.8089Y.642Z1.8521
N7980X.8064Y.634Z1.8506
N7990X.803Y.6262Z1.8491
N8000X.7987Y.6186Z1.8476
N8010X.7937Y.6114Z1.846
N8020X.7878Y.6047Z1.8445
N8030X.7813Y.5987Z1.8429
N8040X.7742Y.5933Z1.8413
N8050X.7667Y.5888Z1.8398
N8060X.7588Y.5851Z1.8382
N8070X.7508Y.5823Z1.8367
N8080X.7427Y.5804Z1.8353
N8090X.7346Y.5792Z1.8338
N8100X.7249Y.5789Z1.8321
N8110X.717Y.5792Z1.8307
N8120X.709Y.5804Z1.8293
N8130X.7008Y.5823Z1.8278
N8140X.6927Y.5851Z1.8263
N8150X.6848Y.5888Z1.8248
N8160X.6772Y.5934Z1.8232
N8170X.67Y.5987Z1.8216
N8180X.6635Y.6048Z1.8201
N8190X.6576Y.6115Z1.8185
N8200X.6525Y.6187Z1.8169
N8210X.6482Y.6263Z1.8154
N8220X.6447Y.6342Z1.8139
N8230X.6421Y.6421Z1.8124
N8240X.6403Y.6501Z1.811
N8250X.6387Y.6636Z1.8086
N8260X.6365Y.6725Z1.8069
N8270X.6342Y.6785Z1.8058
N8280X.6312Y.6845Z1.8046
N8290X.6274Y.6905Z1.8034
N8300X.6228Y.6961Z1.8021
N8310X.6175Y.7013Z1.8008
N8320X.6114Y.706Z1.7994
N8330X.6048Y.7099Z1.7981
N8340X.5976Y.7131Z1.7967
N8350X.5902Y.7153Z1.7953
N8360X.5825Y.7166Z1.7939
N8370X.5749Y.717Z1.7926
N8380X.5674Y.7165Z1.7913
N8390X.5603Y.7152Z1.79
N8400X.5536Y.7132Z1.7888
N8410X.5474Y.7106Z1.7876
N8420X.5417Y.7075Z1.7864
N8430X.5343Y.7021Z1.7848
N8440X.5284Y.6966Z1.7834
N8450X.5238Y.6906Z1.7821
N8460X.521Y.6859Z1.7811
N8470X.5187Y.6807Z1.7801
N8480X.517Y.6749Z1.779
N8490X.5159Y.6688Z1.7779
N8500X.5156Y.6624Z1.7768
N8510X.5161Y.6558Z1.7756
N8520X.5176Y.6492Z1.7744
N8530X.52Y.6429Z1.7733
N8540X.5232Y.6369Z1.7721
N8550X.5271Y.6316Z1.7709
N8560X.5316Y.6268Z1.7697
N8570X.5366Y.6229Z1.7686
N8580X.5418Y.6197Z1.7675
N8590X.5471Y.6172Z1.7665
N8600X.5524Y.6155Z1.7655
N8610X.5601Y.6141Z1.7641
N8620X.5751Y.6134Z1.7615
N8630X.5854Y.6121Z1.7597
N8640X.5956Y.6098Z1.7578
N8650X.6057Y.6067Z1.756
N8660X.6154Y.6026Z1.7541
N8670X.6247Y.5977Z1.7522
N8680X.6335Y.5921Z1.7504
N8690X.6417Y.5858Z1.7486
N8700X.6493Y.5788Z1.7468
N8710X.6492F205.
N8720Y.5787
N8730Y.5014
N8740G2X.5704Y.4167I-.0849J0
N8750G3X.53Y.3082I.0046J-.0634
N8760X.6384Y.3487I.045J.045
N8770G2X.723Y.4276I.0847J-.006
N8780G1X.7269
N8790G2X.8115Y.3488I0J-.0848
N8800G3X.9198Y.3082I.0634J.0045
N8810X.8794Y.4167I-.0449J.045
N8820G2X.8006Y.5014I.0061J.0847
N8830G1Y.505
N8840G2X.8795Y.5897I.0848J0
N8850G3X.9201Y.698I-.0044J.0634
N8860X.8116Y.6577I-.045J-.0449
N8870G2X.7268Y.5789I-.0848J.0062
N8880G1X.7249
N8890G2X.6394Y.6579I0J.0858
N8900G3X.5301Y.6983I-.064J-.0051
N8910X.5649Y.6139I.0349J-.035
N8920G2X.6493Y.5788I-.0001J-.1193
N8930G0Z2.35
M#150
N8940X-1.8285Y.7695
N8950Z1.9
N8960G1X-1.8344Y.7637Z1.8985F30.
N8970X-1.8424Y.7547Z1.8964
N8980X-1.8496Y.7454Z1.8943
N8990X-1.856Y.736Z1.8923
N9000X-1.8615Y.7266Z1.8904
N9010X-1.8664Y.7171Z1.8886
N9020X-1.8705Y.7078Z1.8868
N9030X-1.8739Y.6986Z1.885
N9040X-1.8767Y.6896Z1.8834
N9050X-1.879Y.6808Z1.8818
N9060X-1.8807Y.6723Z1.8802
N9070X-1.882Y.664Z1.8787
N9080X-1.8829Y.656Z1.8773
N9090X-1.8834Y.6483Z1.876
N9100X-1.8835Y.6408Z1.8747
N9110X-1.8834Y.6334Z1.8733
N9120X-1.8829Y.6257Z1.872
N9130X-1.882Y.6177Z1.8706
N9140X-1.8807Y.6094Z1.8691
N9150X-1.879Y.6009Z1.8675
N9160X-1.8767Y.5921Z1.8659
N9170X-1.8739Y.5831Z1.8643
N9180X-1.8705Y.5739Z1.8626
N9190X-1.8664Y.5646Z1.8608
N9200X-1.8615Y.5551Z1.8589
N9210X-1.856Y.5457Z1.857
N9220X-1.8496Y.5363Z1.855
N9230X-1.8424Y.527Z1.8529
N9240X-1.8344Y.518Z1.8508
N9250X-1.8255Y.5093Z1.8486
N9260X-1.8157Y.501Z1.8463
N9270X-1.8051Y.4932Z1.844
N9280X-1.7937Y.4862Z1.8416
N9290X-1.7815Y.4798Z1.8392
N9300X-1.7687Y.4744Z1.8367
N9310X-1.7553Y.4698Z1.8342
N9320X-1.7414Y.4664Z1.8317
N9330X-1.7271Y.4641Z1.8292
N9340X-1.7127Y.4629Z1.8266
N9350X-1.6981Z1.8241
N9360X-1.6837Y.4641Z1.8215
N9370X-1.6694Y.4664Z1.819
N9380X-1.6555Y.4698Z1.8164
N9390X-1.6421Y.4744Z1.8139
N9400X-1.6293Y.4798Z1.8115
N9410X-1.6171Y.4862Z1.8091
N9420X-1.6057Y.4932Z1.8067
N9430X-1.5951Y.501Z1.8044
N9440X-1.5853Y.5093Z1.8021
N9450X-1.5764Y.518Z1.7999
N9460X-1.5684Y.527Z1.7978
N9470X-1.5612Y.5363Z1.7957
N9480X-1.5548Y.5457Z1.7937
N9490X-1.5493Y.5551Z1.7918
N9500X-1.5444Y.5646Z1.7899
N9510X-1.5403Y.5739Z1.7881
N9520X-1.5369Y.5831Z1.7864
N9530X-1.5341Y.5921Z1.7847
N9540X-1.5318Y.6009Z1.7831
N9550X-1.5301Y.6094Z1.7816
N9560X-1.5288Y.6177Z1.7801
N9570X-1.5279Y.6257Z1.7787
N9580X-1.5274Y.6334Z1.7773
N9590X-1.5273Y.6408Z1.776
N9600X-1.5274Y.6483Z1.7747
N9610X-1.5279Y.656Z1.7733
N9620X-1.5288Y.664Z1.7719
N9630X-1.5301Y.6723Z1.7705
N9640X-1.5318Y.6808Z1.7689
N9650X-1.5341Y.6896Z1.7673
N9660X-1.5369Y.6986Z1.7656
N9670X-1.5403Y.7078Z1.7639
N9680X-1.5444Y.7171Z1.7621
N9690X-1.5493Y.7266Z1.7603
N9700X-1.5548Y.736Z1.7583
N9710X-1.5612Y.7454Z1.7563
N9720X-1.5684Y.7547Z1.7543
N9730X-1.5764Y.7637Z1.7521
N9740X-1.5853Y.7724Z1.7499
N9750X-1.5951Y.7807Z1.7477
N9760X-1.6057Y.7885Z1.7454
N9770X-1.6171Y.7955Z1.743
N9780X-1.6293Y.8019Z1.7406
N9790X-1.6421Y.8073Z1.7381
N9800X-1.6555Y.8118Z1.7356
N9810X-1.6694Y.8153Z1.7331
N9820X-1.6837Y.8176Z1.7305
N9830X-1.6981Y.8188Z1.728
N9840X-1.7127Z1.7254
N9850X-1.7271Y.8176Z1.7229
N9860X-1.7414Y.8153Z1.7203
N9870X-1.7553Y.8118Z1.7178
N9880X-1.7687Y.8073Z1.7153
N9890X-1.7815Y.8019Z1.7128
N9900X-1.7937Y.7955Z1.7104
N9910X-1.8051Y.7885Z1.708
N9920X-1.8157Y.7807Z1.7057
N9930X-1.8255Y.7724Z1.7035
N9940X-1.8344Y.7637Z1.7013
N9950X-1.8424Y.7547Z1.6991
N9960X-1.8496Y.7454Z1.6971
N9970X-1.856Y.736Z1.6951
N9980X-1.8615Y.7266Z1.6931
N9990X-1.8664Y.7171Z1.6913
N10X-1.8705Y.7078Z1.6895
N20X-1.8739Y.6986Z1.6878
N30X-1.8767Y.6896Z1.6861
N40X-1.879Y.6808Z1.6845
N50X-1.8807Y.6723Z1.683
N60X-1.882Y.664Z1.6815
N70X-1.8829Y.656Z1.6801
N80X-1.8834Y.6483Z1.6787
N90X-1.8835Y.6408Z1.6774
N100X-1.8834Y.6334Z1.6761
N110X-1.8829Y.6257Z1.6747
N120X-1.882Y.6177Z1.6733
N130X-1.8807Y.6094Z1.6718
N140X-1.879Y.6009Z1.6703
N150X-1.8767Y.5921Z1.6687
N160X-1.8739Y.5831Z1.667
N170X-1.8705Y.5739Z1.6653
N180X-1.8664Y.5646Z1.6635
N190X-1.8615Y.5551Z1.6616
N200X-1.856Y.5457Z1.6597
N210X-1.8496Y.5363Z1.6577
N220X-1.8424Y.527Z1.6556
N230X-1.8344Y.518Z1.6535
N240X-1.8255Y.5093Z1.6513
N250X-1.8199Y.5045Z1.65
N260G3X-1.6941Y.5152I.0576J.0678
N270X-1.7054Y.6408I-.0682J.0572
N280G2X-1.8721Y.8098I.716J.8731F205.
N290G1X-1.8849Y.8259
N300G3X-1.9106Y.8169I-.0113J-.009
N310G1Y.5763
N320G3X-1.8771Y.5428I.0336J0
N330G1X-1.6137
N340G3X-1.606Y.5678I0J.0137
N350G1X-1.6226Y.5791
N360G2X-1.7054Y.6408I.6332J.9349
N370X-1.7374Y.75I.064J.078
N380G3X-1.7593Y.8616I-.111J.0361
N390G2X-1.9985Y1.4757I.7717J.6543
N400G1X-2.0042Y1.6195
N410G2X-1.9449Y1.7933I.2547J.0101
N420G3X-2.0242Y1.9589I-.0773J.0648
N430X-2.097Y1.7903I.002J-.1008
N440G2X-2.0308Y1.619I-.1888J-.1713
N450G1X-2.0307Y.4562
N460G3X-1.9972Y.4227I.0336J0
N470G1X-.38
N480G3X-.3482Y.4559I0J.0318
N490G1X-.3501Y.4968
N500G3X-.3813Y.5185I-.0239J-.0011
N510G1X-.4048Y.5109
N520G2X-.8357Y.473I-.2975J.9143
N530G1X-1.128Y.5139
N540G2X-1.7593Y.8616I.1404J1.0019
N550G0Z2.35
N560X.0367Y3.1773
N570Z1.9
N580G1X.0433Y3.1723Z1.8985F30.
N590X.0466Y3.1706Z1.8979
N600X.0504Y3.1697Z1.8972
N610X.0544Y3.1696Z1.8965
N620X.0583Y3.1705Z1.8958
N630X.0618Y3.1721Z1.8951
N640X.0647Y3.1744Z1.8945
N650X.0669Y3.177Z1.8938
N660X.0687Y3.1801Z1.8932
N670X.0698Y3.1835Z1.8926
N680X.0701Y3.187Z1.892
N690X.07Y3.4924Z1.8381
N700X.0692Y3.4973Z1.8373
N710X.0677Y3.5023Z1.8363
N720X.0653Y3.5072Z1.8354
N730X.0621Y3.5117Z1.8344
N740X.0582Y3.5156Z1.8334
N750X.0537Y3.5188Z1.8325
N760X.0489Y3.5212Z1.8315
N770X.0439Y3.5227Z1.8306
N780X.0389Y3.5234Z1.8297
N790X-.3824Z1.7554
N800X-.3862Y3.5225Z1.7547
N810X-.3888Y3.5211Z1.7542
N820X-.3912Y3.5189Z1.7536
N830X-.3931Y3.5161Z1.753
N840X-.3943Y3.5128Z1.7524
N850X-.3946Y3.5094Z1.7518
N860X-.394Y3.5061Z1.7512
N870X-.3927Y3.5033Z1.7507
N880X-.3901Y3.5001Z1.7499
N890X-.3882Y3.4987Z1.7495
N900X-.3565Y3.4792Z1.743
N910X-.3273Y3.4602Z1.7368
N920X-.2986Y3.4404Z1.7307
N930X-.2704Y3.4199Z1.7245
N940X-.2428Y3.3986Z1.7184
N950X.0433Y3.1723Z1.6541
N960X.0466Y3.1706Z1.6534
N970X.0504Y3.1697Z1.6527
N980X.0544Y3.1696Z1.652
N990X.0583Y3.1705Z1.6513
N1000X.0618Y3.1721Z1.6506
N1010X.0647Y3.1744Z1.65
N1020G3X.0701Y3.187I-.012J.0127F205.
N1030G1Y3.49
N1040G3X.0365Y3.5235I-.0335J0
N1050G1X-.3813Y3.5234
N1060G3X-.3882Y3.4987I0J-.0133
N1070G1X-.3713Y3.4884
N1080G2X-.2428Y3.3986I-.6784J-1.109
N1090G1X.0418Y3.1733
N1100G3X.0647Y3.1744I.0108J.0137
N1110G2X.117Y3.1566I.0215J-.0227
N1120G1X.1549Y2.9203
N1130G3X.1643Y2.9025I.0309J.0049
N1140X.1902Y2.9137I.0106J.0112
N1150G1Y3.6102
N1160G3X.1566Y3.6437I-.0335J0
N1170G1X-.9739Y3.6433
N1180G3X-1.0108Y3.6092I0J-.037
N1190G1X-1.0114Y3.6009
N1200G3X-.9821Y3.5657I.0326J-.0026
N1210G1X-.9531Y3.5628
N1220G2X-.5526Y3.4498I-.1193J-1.189
N1230G1X-.5384Y3.443
N1240G2X-.316Y3.3035I-.52J-1.0766
N1250G1X.0124Y3.0434
N1260G2X.1489Y2.9187I-.8168J-1.031
N1270G1X.1637Y2.9031
N1280X.164Y2.9028
N1290X.1643Y2.9025
N1300G2X.1735Y2.8859I-.0214J-.0227
N1310G1X.2492Y2.5074
N1320G3X.3099Y2.5052I.0306J.0061
N1330G1X.3103Y2.5068
N1340X.3104Y2.5085
N1350X.3103Y3.7303
N1360G3X.2767Y3.7639I-.0336J0
N1370G1X-1.0969Y3.7634
N1380G3X-1.1275Y3.7322I0J-.0306
N1390G1X-1.127Y3.7022
N1400X-1.1271Y3.6912
N1410G2X-1.1454Y3.5014I-1.0837J.0085
N1420G1X-1.1499Y3.4768
N1430G3X-1.1253Y3.4479I.0241J-.0045
N1440G1X-1.0998Y3.4485
N1450G2X-.6043Y3.3415I.0268J-1.0772
N1460G1X-.5914Y3.3353
N1470G2X-.3898Y3.2089I-.4714J-.9759
N1480G1X-.063Y2.95
N1490G2X.2782Y2.521I-.7501J-.9468
N1500G1X.2867Y2.5032
N1510G3X.3099Y2.5052I.0113J.0053
N1520G2X.3747Y2.5676I.0855J-.0239
N1530G3X.4305Y2.6383I-.0169J.0707
N1540G1Y3.8505
N1550G3X.3969Y3.884I-.0336J0
N1560G1X-1.2208
N1570G3X-1.2527Y3.8507I0J-.0319
N1580G1X-1.2471Y3.714
N1590Y3.704
N1600G2X-1.3146Y3.3448I-.9711J-.0034
N1610G1X-1.3225Y3.3247
N1620G3X-1.3024Y3.3013I.0163J-.0064
N1630G1X-1.2813Y3.306
N1640G2X-.6532Y3.2319I.208J-.9361
N1650G1X-.6406Y3.2257
N1660G2X-.4389Y3.094I-.4222J-.8663
N1670G1X-.2989Y2.9751
N1680X-.1709Y2.8814
N1690G2X.2612Y2.1756I-.6433J-.8791
N1700G1X.271Y2.1149
N1710G2X.2866Y1.9574I-1.2848J-.2069
N1720G1X.2945Y1.751
N1730G2X.2925Y1.5816I-1.7007J-.0647
N1740G1X.2908Y1.5554
N1750G3X.3186Y1.5334I.0216J-.0013
N1760G1X.3542Y1.544
N1770X.3981Y1.5559
N1780G3X.4305Y1.5983I-.0114J.0423
N1790G1Y2.6383
N1800G0Z2.35
N1810X-1.9427Y2.9167
M#150
N1820Z1.9
N1830G1X-1.9527Y2.9176Z1.8982F30.
N1840X-1.9673Z1.8957
N1850X-1.9817Y2.9164Z1.8931
N1860X-1.996Y2.914Z1.8906
N1870X-2.0099Y2.9106Z1.888
N1880X-2.0233Y2.9061Z1.8855
N1890X-2.0361Y2.9006Z1.8831
N1900X-2.0483Y2.8943Z1.8807
N1910X-2.0597Y2.8872Z1.8783
N1920X-2.0703Y2.8794Z1.876
N1930X-2.0801Y2.8711Z1.8737
N1940X-2.089Y2.8624Z1.8715
N1950X-2.097Y2.8534Z1.8694
N1960X-2.1042Y2.8441Z1.8673
N1970X-2.1106Y2.8347Z1.8653
N1980X-2.1161Y2.8253Z1.8634
N1990X-2.121Y2.8159Z1.8615
N2000X-2.1251Y2.8065Z1.8597
N2010X-2.1285Y2.7974Z1.858
N2020X-2.1313Y2.7883Z1.8563
N2030X-2.1336Y2.7795Z1.8547
N2040X-2.1353Y2.771Z1.8532
N2050X-2.1366Y2.7627Z1.8517
N2060X-2.1375Y2.7547Z1.8503
N2070X-2.138Y2.747Z1.8489
N2080X-2.1381Y2.7396Z1.8476
N2090X-2.138Y2.7322Z1.8463
N2100X-2.1375Y2.7244Z1.845
N2110X-2.1366Y2.7164Z1.8435
N2120X-2.1353Y2.7082Z1.8421
N2130X-2.1336Y2.6996Z1.8405
N2140X-2.1313Y2.6908Z1.8389
N2150X-2.1285Y2.6818Z1.8373
N2160X-2.1251Y2.6726Z1.8355
N2170X-2.121Y2.6633Z1.8337
N2180X-2.1161Y2.6539Z1.8319
N2190X-2.1106Y2.6444Z1.8299
N2200X-2.1042Y2.635Z1.8279
N2210X-2.097Y2.6258Z1.8259
N2220X-2.089Y2.6167Z1.8237
N2230X-2.0801Y2.608Z1.8215
N2240X-2.0703Y2.5997Z1.8193
N2250X-2.0597Y2.592Z1.817
N2260X-2.0483Y2.5849Z1.8146
N2270X-2.0361Y2.5785Z1.8122
N2280X-2.0233Y2.5731Z1.8097
N2290X-2.0099Y2.5686Z1.8072
N2300X-1.996Y2.5651Z1.8047
N2310X-1.9817Y2.5628Z1.8022
N2320X-1.9673Y2.5616Z1.7996
N2330X-1.9527Z1.797
N2340X-1.9383Y2.5628Z1.7945
N2350X-1.924Y2.5651Z1.7919
N2360X-1.9101Y2.5686Z1.7894
N2370X-1.8967Y2.5731Z1.7869
N2380X-1.8839Y2.5785Z1.7845
N2390X-1.8717Y2.5849Z1.782
N2400X-1.8603Y2.592Z1.7797
N2410X-1.8497Y2.5997Z1.7773
N2420X-1.8399Y2.608Z1.7751
N2430X-1.831Y2.6167Z1.7729
N2440X-1.823Y2.6258Z1.7708
N2450X-1.8158Y2.635Z1.7687
N2460X-1.8094Y2.6444Z1.7667
N2470X-1.8039Y2.6539Z1.7648
N2480X-1.799Y2.6633Z1.7629
N2490X-1.7949Y2.6726Z1.7611
N2500X-1.7915Y2.6818Z1.7594
N2510X-1.7887Y2.6908Z1.7577
N2520X-1.7864Y2.6996Z1.7561
N2530X-1.7847Y2.7082Z1.7546
N2540X-1.7834Y2.7164Z1.7531
N2550X-1.7825Y2.7244Z1.7517
N2560X-1.782Y2.7322Z1.7503
N2570X-1.7819Y2.7396Z1.749
N2580X-1.782Y2.747Z1.7477
N2590X-1.7825Y2.7547Z1.7463
N2600X-1.7834Y2.7627Z1.7449
N2610X-1.7847Y2.771Z1.7434
N2620X-1.7864Y2.7795Z1.7419
N2630X-1.7887Y2.7883Z1.7403
N2640X-1.7915Y2.7974Z1.7386
N2650X-1.7949Y2.8065Z1.7369
N2660X-1.799Y2.8159Z1.7351
N2670X-1.8039Y2.8253Z1.7332
N2680X-1.8094Y2.8347Z1.7313
N2690X-1.8158Y2.8441Z1.7293
N2700X-1.823Y2.8534Z1.7272
N2710X-1.831Y2.8624Z1.7251
N2720X-1.8399Y2.8711Z1.7229
N2730X-1.8497Y2.8794Z1.7207
N2740X-1.8603Y2.8872Z1.7183
N2750X-1.8717Y2.8943Z1.716
N2760X-1.8839Y2.9006Z1.7135
N2770X-1.8967Y2.9061Z1.7111
N2780X-1.9101Y2.9106Z1.7086
N2790X-1.924Y2.914Z1.7061
N2800X-1.9383Y2.9164Z1.7035
N2810X-1.9527Y2.9176Z1.701
N2820X-1.9673Z1.6984
N2830X-1.9817Y2.9164Z1.6958
N2840X-1.996Y2.914Z1.6933
N2850X-2.0099Y2.9106Z1.6908
N2860X-2.0233Y2.9061Z1.6883
N2870X-2.0361Y2.9006Z1.6858
N2880X-2.0483Y2.8943Z1.6834
N2890X-2.0597Y2.8872Z1.681
N2900X-2.0703Y2.8794Z1.6787
N2910X-2.0801Y2.8711Z1.6765
N2920X-2.089Y2.8624Z1.6743
N2930X-2.097Y2.8534Z1.6721
N2940X-2.1042Y2.8441Z1.6701
N2950X-2.1106Y2.8347Z1.6681
N2960X-2.1161Y2.8253Z1.6661
N2970X-2.121Y2.8159Z1.6643
N2980X-2.1251Y2.8065Z1.6625
N2990X-2.1285Y2.7974Z1.6607
N3000X-2.1313Y2.7883Z1.6591
N3010X-2.1336Y2.7795Z1.6575
N3020X-2.1353Y2.771Z1.6559
N3030X-2.1366Y2.7627Z1.6545
N3040X-2.1375Y2.7547Z1.653
N3050X-2.138Y2.747Z1.6517
N3060X-2.1381Y2.7375Z1.65
N3070G3X-2.048Y2.6503I.0891J.0019
N3080X-1.96Y2.7396I-.001J.089
N3090X-1.9819Y2.7572I-.0175J.0007F205.
N3100G1X-1.9981Y2.753
N3110G3X-2.0308Y2.7107I.0111J-.0423
N3120G1Y2.5855
N3130G3X-2.009Y2.5829I.0111J0
N3140G1X-2.0053Y2.5982
N3150G2X-1.9688Y2.7144I.9262J-.2274
N3160G1X-1.9612Y2.734
N3170X-1.9604Y2.7368
N3180X-1.96Y2.7396
N3190G0Z2.3
N3200G1X.4305Y2.3981F750.
N3210G0Z1.8
N3220G1Z1.65F15.
N3230G2X.5046Y2.5112I.5229J-.2614F205.
N3240G3X.5506Y2.6383I-.1523J.1271
N3250G1Y3.9706
N3260G3X.517Y4.0042I-.0336J0
N3270G1X-1.3461Y4.0041
N3280G3X-1.3779Y3.9709I0J-.0319
N3290G1X-1.3673Y3.7231
N3300X-1.3672Y3.7141
N3310G2X-2.0898Y2.8579I-.853J-.0132
N3320G1X-2.1191Y2.8533
N3330G3X-2.151Y2.8162I.0057J-.0372
N3340G1X-2.1509Y.3361
N3350G3X-2.1173Y.3025I.0336J0
N3360G1X-.2543Y.3026
N3370G3X-.2225Y.3358I0J.0318
N3380G1X-.2331Y.5685
N3390X-.2334Y.5782
N3400G2X-.2309Y.6761I.8434J.0276
N3410G1X-.2293Y.6959
N3420G3X-.2549Y.712I-.017J.0014
N3430G1X-.2728Y.7014
N3440G2X-.8307Y.5935I-.4296J.7253
N3450G1X-1.0311Y.6244
N3460X-1.0689Y.6279
N3470G2X-1.8786Y1.4809I.0815J.8882
N3480G1X-1.9123Y2.3361
N3490G2X-.7028Y3.1226I.839J.033
N3500G1X-.6905Y3.1165
N3510G2X-.4752Y2.9648I-.3723J-.7571
N3520G1X-.3852Y2.8775
N3530G3X-.3714Y2.8669I.0522J.0538
N3540G1X-.3173Y2.8346
N3550G2X.1429Y2.1555I-.4974J-.8325
N3560G1X.1526Y2.0948
N3570G2X.1666Y1.9531I-1.1664J-.1869
N3580G1X.1745Y1.7483
N3590G2X.1505Y1.4039I-1.6043J-.0614
N3600G1X.1401Y1.3459
N3610G3X.1645Y1.329I.016J-.0029
N3620G1X.1819Y1.3395
N3630G2X.4897Y1.4511I.4399J-.7327
N3640G1X.5188Y1.4557
N3650G3X.5507Y1.493I-.0058J.0373
N3660G1X.5506Y2.6383
N3670G2X.6107Y2.7585I.1502J0
N3680G3X.6708Y2.8786I-.0901J.1201
N3690G1X.6707Y4.0907
N3700G3X.6372Y4.1243I-.0336J0
N3710G1X-1.4905
N3720G3X-1.5151Y4.094I0J-.0252
N3730G1X-1.5105Y4.0714
N3740G2X-1.4993Y3.9951I-.6772J-.1389
N3750G1X-1.4982Y3.9829
N3760X-1.4874Y3.7214
N3770G2X-2.2256Y2.9679I-.733J-.0203
N3780G1X-2.2387
N3790G3X-2.2711Y2.9358I-.0002J-.0322
N3800G1X-2.271Y.2159
N3810G3X-2.2374Y.1824I.0336J0
N3820G1X-.1094
N3830G3X-.0848Y.2126I0J.0251
N3840G1X-.0895Y.2354
N3850G2X-.1034Y.347I.6808J.1414
N3860G1X-.1131Y.5737
N3870G2X.6208Y1.3414I.7355J.0316
N3880G1X.6389Y1.3415
N3890G3X.6708Y1.3735I-.0001J.032
N3900G1Y2.8786
N3910G2X.7308Y2.9988I.1502J0
N3920G3X.7909Y3.1189I-.0901J.1201
N3930G1X.7908Y4.2109
N3940G3X.7573Y4.2444I-.0336J0
N3950G1X-1.6734
N3960G3X-1.6907Y4.216I0J-.0194
N3970G1X-1.6813Y4.1979
N3980G2X-1.618Y3.975I-.5167J-.2672
N3990G1X-1.6173Y3.9649
N4000X-1.6076Y3.7257
N4010G2X-2.2336Y3.088I-.6129J-.0245
N4020G1X-2.358Y3.0924
N4030G3X-2.3912Y3.0603I-.0012J-.0321
N4040G1X-2.3911Y.0958
N4050G3X-2.3576Y.0622I.0336J0
N4060G1X.0741Y.0623
N4070G3X.0913Y.0907I0J.0194
N4080G1X.0819Y.1087
N4090G2X.0165Y.353I.5168J.2693
N4100G1X.0068Y.5787
N4110G2X.6394Y1.2212I.6157J.0264
N4120G1X.7577Y1.2163
N4130G3X.7909Y1.2482I.0013J.0319
N4140G1Y3.1189
N4150G2X.8509Y3.239I.1502J0
N4160G3X.911Y3.3592I-.0901J.1201
N4170G1Y4.331
N4180G3X.8774Y4.3646I-.0336J0
N4190G1X-1.9777Y4.3645
N4200G3X-1.984Y4.3406I0J-.0128
N4210G1X-1.9703Y4.3328
N4220G2X-1.7371Y3.9584I-.2293J-.4026
N4230G1X-1.7366Y3.9496
N4240X-1.7275Y3.721
N4250G2X-2.2378Y3.2081I-.4931J-.0197
N4260G1X-2.4645Y3.2161
N4270X-2.4784Y3.2171
N4280G3X-2.5114Y3.1865I-.0022J-.0307
N4290G1X-2.5113Y-.0243
N4300G3X-2.4777Y-.0579I.0336J0
N4310G1X.3802Y-.0578
N4320G3X.3864Y-.034I0J.0127
N4330G1X.3727Y-.0263
N4340G2X.1363Y.3585I.2274J.4047
N4350G1X.1267Y.5838
N4360G2X.6429Y1.101I.4959J.0213
N4370G1X.864Y1.0919
N4380X.8781Y1.0909
N4390G3X.9111Y1.1216I.0022J.0307
N4400G1X.911Y3.3592
N4410G0Z2.3
N4420G1X.622Y1.1014F750.
N4430G0Z1.8
N4440G1Z1.65F15.
N4450G2X.7317Y1.0233I-.281J-.51F205.
N4460G1X.7318Y1.0231
N4470G3X.8567Y.9721I.1328J.1467
N4480G1X.8717Y.9715
N4490X.8867Y.9702
N4500X.9017Y.9683
N4510X.9167Y.9656
N4520X.9316Y.9623
N4530X.9466Y.9583
N4540X.9616Y.9536
N4550X.9766Y.948
N4560X.9916Y.9416
N4570X1.0066Y.9344
N4580X1.0216Y.9263
N4590X1.0366Y.9172
N4600X1.0516Y.9069
N4610X1.0666Y.8954
N4620X1.0816Y.8825
N4630X1.0933Y.8714
N4640X1.1074Y.8564
N4650X1.1199Y.8414
N4660X1.1266Y.8327
N4670X1.131Y.8264
N4680X1.1411Y.8114
N4690X1.15Y.7964
N4700X1.1566Y.7841
N4710X1.1649Y.7664
N4720X1.1711Y.7514
N4730X1.1764Y.7364
N4740X1.181Y.7214
N4750X1.1865Y.6992
N4760X1.1905Y.6764
N4770X1.1923Y.6615
N4780X1.1934Y.6465
N4790X1.1939Y.6315
N4800Y.5715
N4810Y.3766
N4820X1.1935Y.3616
N4830X1.1924Y.3466
N4840X1.1907Y.3316
N4850X1.1883Y.3166
N4860X1.1865Y.3074
N4870X1.1815Y.2866
N4880X1.177Y.2716
N4890X1.1717Y.2566
N4900X1.1656Y.2416
N4910X1.1587Y.2266
N4920X1.1509Y.2116
N4930X1.1416Y.1958
N4940X1.1322Y.1816
N4950X1.1211Y.1667
N4960X1.1116Y.155
N4970X1.0966Y.1385
N4980X1.0816Y.1239
N4990X1.0666Y.1111
N5000X1.0516Y.0996
N5010X1.0402Y.0917
N5020X1.0216Y.0801
N5030X1.0066Y.072
N5040X.9916Y.0648
N5050X.9766Y.0584
N5060X.9616Y.0529
N5070X.9417Y.0467
N5080X.9316Y.0441
N5090X.9167Y.0408
N5100X.9017Y.0382
N5110X.8867Y.0362
N5120X.8717Y.035
N5130X.8567Y.0343
N5140X.8417Y.0342
N5150X.6018
N5160X.5868Y.0345
N5170X.5718Y.0354
N5180X.5568Y.0369
N5190X.5418Y.0392
N5200X.5268Y.0421
N5210X.5118Y.0457
N5220X.4968Y.0501
N5230X.4818Y.0552
N5240X.4668Y.061
N5250X.4518Y.0677
N5260X.4368Y.0753
N5270X.4219Y.084
N5280X.4096Y.0917
N5290X.3919Y.1043
N5300X.3769Y.1163
N5310X.3619Y.1299
N5320X.3551Y.1367
N5330X.3411Y.1517
N5340X.3319Y.1627
N5350X.3177Y.1816
N5360X.3078Y.1966
N5370X.3019Y.2064
N5380X.2912Y.2266
N5390X.2869Y.2356
N5400X.2782Y.2566
N5410X.2729Y.2716
N5420X.2684Y.2866
N5430X.2646Y.3016
N5440X.2616Y.3166
N5450X.2591Y.3316
N5460X.2569Y.3523
N5470X.2559Y.3766
N5480Y.6315
N5490X.2569Y.6541
N5500X.2593Y.6764
N5510X.2618Y.6914
N5520X.2649Y.7064
N5530X.2688Y.7214
N5540X.2719Y.7318
N5550X.2788Y.7514
N5560X.2849Y.7664
N5570X.2919Y.7814
N5580X.2999Y.7964
N5590X.3088Y.8114
N5600X.3169Y.8237
N5610X.33Y.8414
N5620X.3425Y.8564
N5630X.3566Y.8714
N5640X.3725Y.8864
N5650X.3908Y.9014
N5660X.4069Y.9129
N5670X.4219Y.9225
N5680X.4368Y.9311
N5690X.4518Y.9387
N5700X.4668Y.9454
N5710X.4818Y.9513
N5720X.4968Y.9564
N5730X.5118Y.9607
N5740X.5268Y.9643
N5750X.5418Y.9673
N5760X.5568Y.9695
N5770X.5718Y.9711
N5780X.5868Y.972
N5790X.6018Y.9722
N5800X.8567Y.9721
N5810G0Z2.3
N5820G1X-1.7631Y3.5162F750.
N5830G0Z1.8
M#150
N5840G1Z1.65F15.
N5850G2X-1.8573Y3.4938I-.1431J.393F205.
N5860G1X-1.8575
N5870G3X-1.9441Y3.4503I.0166J-.1413
N5880G1X-1.9583Y3.4353
N5890X-1.9746Y3.4203
N5900X-1.9922Y3.406
N5910X-2.0072Y3.3952
N5920X-2.0221Y3.3856
N5930X-2.0371Y3.377
N5940X-2.0521Y3.3694
N5950X-2.0671Y3.3627
N5960X-2.0821Y3.3569
N5970X-2.0971Y3.3518
N5980X-2.1121Y3.3474
N5990X-2.1201Y3.3454
N6000X-2.1271Y3.3437
N6010X-2.1421Y3.3409
N6020X-2.1571Y3.3387
N6030X-2.1721Y3.3371
N6040X-2.1871Y3.3362
N6050X-2.2021Y3.3359
N6060X-2.322Y3.3358
N6070X-2.457Y3.3359
N6080X-2.472Y3.3366
N6090X-2.487Y3.3379
N6100X-2.5019Y3.3398
N6110X-2.5169Y3.3425
N6120X-2.5303Y3.3454
N6130X-2.5469Y3.3498
N6140X-2.5619Y3.3546
N6150X-2.5769Y3.3601
N6160X-2.5919Y3.3665
N6170X-2.6069Y3.3737
N6180X-2.6219Y3.3818
N6190X-2.6359Y3.3903
N6200X-2.6519Y3.4012
N6210X-2.6669Y3.4127
N6220X-2.6819Y3.4256
N6230X-2.6921Y3.4353
N6240X-2.7064Y3.4503
N6250X-2.719Y3.4653
N6260X-2.7269Y3.4755
N6270X-2.7404Y3.4953
N6280X-2.7495Y3.5103
N6290X-2.7568Y3.5239
N6300X-2.7646Y3.5403
N6310X-2.7708Y3.5553
N6320X-2.7762Y3.5703
N6330X-2.7809Y3.5853
N6340X-2.7848Y3.6002
N6350X-2.7868Y3.609
N6360X-2.7906Y3.6302
N6370X-2.7924Y3.6452
N6380X-2.7936Y3.6602
N6390X-2.7942Y3.6752
N6400Y3.9301
N6410X-2.7939Y3.9451
N6420X-2.7928Y3.9601
N6430X-2.7912Y3.9751
N6440X-2.7889Y3.9901
N6450X-2.7868Y4.0006
N6460X-2.7822Y4.0201
N6470X-2.7777Y4.0351
N6480X-2.7725Y4.0501
N6490X-2.7665Y4.0651
N6500X-2.7597Y4.08
N6510X-2.7519Y4.095
N6520X-2.7433Y4.11
N6530X-2.7335Y4.125
N6540X-2.7269Y4.1343
N6550X-2.7119Y4.1531
N6560X-2.6969Y4.1697
N6570X-2.6819Y4.1842
N6580X-2.6669Y4.197
N6590X-2.6519Y4.2085
N6600X-2.6369Y4.2188
N6610X-2.6219Y4.228
N6620X-2.6069Y4.2361
N6630X-2.5919Y4.2433
N6640X-2.5769Y4.2497
N6650X-2.5619Y4.2552
N6660X-2.547Y4.26
N6670X-2.5319Y4.264
N6680X-2.5169Y4.2673
N6690X-2.5019Y4.2699
N6700X-2.487Y4.2719
N6710X-2.472Y4.2732
N6720X-2.457Y4.2738
N6730X-2.2321Y4.2739
N6740X-2.1871Y4.2736
N6750X-2.1721Y4.2727
N6760X-2.1571Y4.2711
N6770X-2.1421Y4.2689
N6780X-2.1271Y4.266
N6790X-2.1121Y4.2624
N6800X-2.1035Y4.26
N6810X-2.0821Y4.2529
N6820X-2.0671Y4.247
N6830X-2.0521Y4.2403
N6840X-2.0321Y4.23
N6850X-2.0221Y4.2241
N6860X-2.0078Y4.215
N6870X-1.9922Y4.2038
N6880X-1.9772Y4.1917
N6890X-1.9622Y4.1781
N6900X-1.9539Y4.17
N6910X-1.9401Y4.155
N6920X-1.9322Y4.1455
N6930X-1.9172Y4.1253
N6940X-1.9072Y4.11
N6950X-1.9022Y4.1017
N6960X-1.8908Y4.08
N6970X-1.8839Y4.0651
N6980X-1.878Y4.0501
N6990X-1.8722Y4.0334
N7000X-1.8683Y4.0201
N7010X-1.8645Y4.0051
N7020X-1.8616Y3.9901
N7030X-1.8593Y3.9751
N7040X-1.8576Y3.9601
N7050X-1.8566Y3.9451
N7060X-1.8562Y3.9301
N7070X-1.8563Y3.6752
N7080X-1.8568Y3.6602
N7090X-1.858Y3.6452
N7100X-1.8599Y3.6302
N7110X-1.8624Y3.6152
N7120X-1.8656Y3.6002
N7130X-1.8695Y3.5853
N7140X-1.8741Y3.5703
N7150X-1.8796Y3.5553
N7160X-1.8859Y3.5403
N7170X-1.893Y3.5253
N7180X-1.9009Y3.5103
N7190X-1.91Y3.4953
N7200X-1.9172Y3.4844
N7210X-1.9314Y3.4653
N7220X-1.9441Y3.4503
N7230G0Z2.3
N7240G1X-2.5063Y3.3406F750.
N7250G0Z1.8
N7260G1Z1.65F15.
N7270G2X-2.5835Y3.2227I-.5449J.2725F205.
N7280G3X-2.6315Y3.0902I.1587J-.1325
N7290G1Y-.0012
N7300G2X-2.7206Y-.1374I-.1486J0
N7310G3X-2.7508Y-.2973I.0395J-.0903
N7320X-2.5909Y-.2671I.0697J.0697
N7330G2X-2.4547Y-.178I.1362J-.0595
N7340G1X.8544
N7350G2X.9906Y-.2671I0J-.1486
N7360G3X1.1505Y-.2973I.0903J.0395
N7370X1.1203Y-.1374I-.0697J.0697
N7380G2X1.0312Y-.0012I.0595J.1362
N7390G1Y.086
N7400G0Z2.3
N7410G1Y.9205F750.
N7420G0Z1.8
N7430G1Z1.65F15.
N7440F205.
N7450Y4.3079
N7460G2X1.1203Y4.4441I.1486J0
N7470G3X1.1505Y4.604I-.0395J.0903
N7480X.9906Y4.5738I-.0697J-.0697
N7490G2X.8544Y4.4847I-.1362J.0595
N7500G1X-2.4547
N7510G2X-2.5909Y4.5738I0J.1486
N7520G3X-2.7508Y4.604I-.0903J-.0395
N7530X-2.7206Y4.4441I.0697J-.0697
N7540G2X-2.6315Y4.3079I-.0595J-.1362
N7550G1Y4.2222
N7560Y4.2221
N7570G0Z2.3
N7580G1Y3.3876F750.
N7590G0Z1.8
N7600G1Z1.65F15.
N7610F205.
N7620Y3.0902
N7630G0Z2.3
M#150
N7640G1X-1.8963Y2.5357F750.
N7650G0Z1.8
N7660G1Z1.65F15.
N7670G2X-1.8035Y2.5936I.2951J-.3697F205.
N7680G3X-1.7264Y2.6713I-.0687J.1451
N7690G2X-.7533Y3.0137I.6531J-.3023
N7700G1X-.7411Y3.0076
N7710G2X-.4988Y2.8128I-.3217J-.6482
N7720G1X-.4755Y2.7838
N7730G3X-.453Y2.765I.0585J.047
N7740G1X-.3623Y2.7154
N7750G2X-.1376Y2.5071I-.3002J-.5492
N7760G1X-.1334Y2.5007
N7770X-.1102Y2.4634
N7780G2X.0457Y1.9568I-.8856J-.5499
N7790G1X.0543Y1.7495
N7800G2X.0317Y1.4211I-1.4923J-.062
N7810G1X.0094Y1.2983
N7820G2X-.8551Y.72I-.7119J.129
N7830G1X-1.0034Y.7519
N7840X-1.0092Y.7527
N7850X-1.0858Y.76
N7860G2X-1.7471Y1.4507I.069J.7279
N7870G1X-1.792Y2.3324
N7880G2X-1.7264Y2.6713I.7187J.0367
N7890X-1.6248Y2.7306I.0933J-.0432
N7900G3X-1.5154Y2.7738I.0108J.1325
N7910G2X-.9915Y2.9535I.4245J-.3842
N7920G1X-.9281Y2.9423
N7930G2X-.5945Y2.7317I-.0904J-.5127
N7940G1X-.5605Y2.6839
N7950G3X-.5281Y2.6581I.0611J.0435
N7960G1X-.4691Y2.6337
N7970G2X-.2341Y2.4352I-.1941J-.4683
N7980G1X-.2301Y2.429
N7990X-.2025Y2.3829
N8000G2X-.0741Y1.9265I-.7763J-.4646
N8010G1X-.0732Y1.831
N8020X-.0676Y1.7411
N8030G2X-.1043Y1.368I-1.1767J-.0727
N8040G1X-.1348Y1.2522
N8050G2X-.8051Y.8421I-.5492J.1447
N8060G1X-.9789Y.88
N8070X-.9848Y.8808
N8080X-1.1027Y.8922
N8090G2X-1.6085Y1.3776I.0542J.5627
N8100G1X-1.6159Y1.4313
N8110G2X-1.6293Y1.5898I1.485J.2049
N8120G1X-1.6349Y1.7682
N8130X-1.6495Y1.9532
N8140G2X-1.6591Y2.1491I3.2403J.256
N8150G1X-1.6633Y2.3791
N8160G2X-1.5154Y2.7738I.5724J.0106
N8170X-1.3784Y2.8136I.1008J-.0912
N8180G3X-1.2358Y2.8161I.0671J.2429
N8190G2X-1.0441Y2.8308I.1276J-.4064
N8200G1X-.9395Y2.8148
N8210X-.9231Y2.8118
N8220G2X-.7712Y2.7432I-.0735J-.3651
N8230G1X-.7687Y2.7413
N8240G2X-.6622Y2.6101I-.2158J-.284
N8250G1X-.6482Y2.5806
N8260G3X-.6102Y2.5501I.0503J.0239
N8270G1X-.5778Y2.5428
N8280G2X-.3315Y2.3646I-.0858J-.3779
N8290G1X-.3274Y2.3576
N8300X-.3226Y2.3491
N8310G2X-.2872Y2.279I-.8897J-.4943
N8320G1X-.2518Y2.202
N8330G2X-.1984Y1.9156I-.5446J-.2498
N8340G1X-.2037Y1.8294
N8350G3X-.2031Y1.8145I.0749J-.0046
N8360G1X-.1932Y1.7431
N8370G2X-.2141Y1.4466I-.709J-.099
N8380G1X-.2704Y1.2504
N8390G2X-.7115Y.959I-.3909J.1122
N8400G1X-.7813Y.9677
N8410G2X-.8683Y.9848I.0785J.6309
N8420G1X-.955Y1.0081
N8430G3X-.9757Y1.0107I-.0195J-.0724
N8440G1X-1.0411Y1.0096
N8450G2X-1.4908Y1.403I-.0073J.4453
N8460G1X-1.503Y1.5071
N8470G2X-1.5089Y1.6577I.9631J.1131
N8480G1X-1.5045Y1.773
N8490G3X-1.5053Y1.7875I-.075J.0029
N8500G1X-1.5212Y1.8891
N8510G2X-1.5327Y2.0332I.9431J.1478
N8520G1X-1.5342Y2.4081
N8530G2X-1.2358Y2.8161I.426J.0016
N8540X-1.1264Y2.7698I.0275J-.0874
N8550G1X-1.1263Y2.7696
N8560G3X-1.0269Y2.7042I.1061J.053
N8570G1X-1.0026Y2.7029
N8580X-.9876Y2.7014
N8590X-.9726Y2.6992
N8600X-.9576Y2.6963
N8610X-.9426Y2.6928
N8620X-.9276Y2.6888
N8630X-.9172Y2.6856
N8640X-.8976Y2.6784
N8650X-.8826Y2.6716
N8660X-.8676Y2.6636
N8670X-.8526Y2.6541
N8680X-.8346Y2.6406
N8690X-.818Y2.6256
N8700X-.8076Y2.6146
N8710X-.8042Y2.6107
N8720X-.7926Y2.596
N8730X-.7825Y2.5807
N8740X-.7741Y2.5657
N8750X-.767Y2.5507
N8760X-.7627Y2.5398
N8770X-.7565Y2.5207
N8780X-.7529Y2.5057
N8790X-.7503Y2.4907
N8800X-.7487Y2.4757
N8810X-.7479Y2.4607
N8820Y2.4457
N8830X-.748Y2.4443
N8840G3X-.7249Y2.4254I.0187J-.0007
N8850G1X-.7177Y2.4271
N8860X-.7027Y2.4297
N8870X-.6877Y2.4315
N8880X-.6727Y2.4324
N8890X-.6577
N8900X-.6427Y2.4316
N8910X-.6328Y2.4307
N8920X-.6127Y2.4275
N8930X-.5977Y2.4241
N8940X-.5827Y2.4199
N8950X-.5707Y2.4157
N8960X-.5527Y2.4083
N8970X-.5374Y2.4007
N8980X-.5228Y2.3923
N8990X-.5127Y2.3857
N9000X-.5078Y2.3822
N9010X-.4928Y2.3707
N9020X-.4778Y2.3572
N9030X-.4628Y2.3416
N9040X-.4498Y2.3258
N9050X-.4394Y2.3108
N9060X-.4328Y2.3002
N9070X-.4178Y2.2732
N9080X-.4063Y2.2508
N9090X-.3991Y2.2358
N9100X-.3878Y2.2108
N9110X-.3795Y2.1908
N9120X-.3728Y2.1736
N9130X-.3682Y2.1608
N9140X-.3581Y2.1308
N9150X-.3492Y2.1009
N9160X-.3428Y2.077
N9170X-.3379Y2.0559
N9180X-.3347Y2.0409
N9190X-.3287Y2.0109
N9200X-.3234Y1.9809
N9210X-.3212Y1.9659
N9220X-.3195Y1.9509
N9230X-.3187Y1.9359
N9240Y1.9209
N9250X-.3196Y1.9059
N9260X-.3214Y1.8909
N9270X-.3242Y1.876
N9280X-.3278Y1.8606
N9290X-.3323Y1.846
N9300X-.3381Y1.831
N9310X-.3409Y1.8247
N9320G3X-.3402Y1.808I.0171J-.0076
N9330G1X-.3363Y1.801
N9340X-.3294Y1.786
N9350X-.3234Y1.771
N9360X-.3186Y1.756
N9370X-.3148Y1.741
N9380X-.3128Y1.7313
N9390X-.3101Y1.711
N9400X-.3091Y1.696
N9410Y1.681
N9420X-.3099Y1.666
N9430X-.311Y1.651
N9440X-.3155Y1.6061
N9450X-.3214Y1.5611
N9460X-.3261Y1.5311
N9470X-.3316Y1.5011
N9480X-.3378Y1.4711
N9490X-.3428Y1.449
N9500X-.3524Y1.4111
N9510X-.3578Y1.3916
N9520X-.3653Y1.3662
N9530X-.375Y1.3362
N9540X-.3878Y1.3004
N9550X-.4028Y1.2619
N9560X-.4158Y1.2312
N9570X-.4229Y1.2162
N9580X-.4311Y1.2012
N9590X-.4407Y1.1862
N9600X-.4478Y1.1764
N9610X-.4519Y1.1712
N9620X-.4628Y1.1585
N9630X-.4778Y1.1437
N9640X-.4928Y1.1312
N9650X-.4993Y1.1263
N9660X-.5078Y1.1205
N9670X-.5231Y1.1113
N9680X-.5378Y1.1038
N9690X-.5557Y1.0963
N9700X-.5677Y1.0922
N9710X-.5827Y1.0882
N9720X-.5977Y1.0852
N9730X-.6127Y1.083
N9740X-.6277Y1.082
N9750X-.6427Y1.0819
N9760X-.6577Y1.0827
N9770X-.6727Y1.0841
N9780X-.7027Y1.0864
N9790X-.7327Y1.089
N9800X-.8009Y1.0963
N9810X-.8226Y1.099
N9820X-.8376Y1.1016
N9830X-.8526Y1.1053
N9840X-.8676Y1.1099
N9850X-.8826Y1.1156
N9860X-.8976Y1.1224
N9870X-.9126Y1.1303
N9880X-.9298Y1.1413
N9890X-.933Y1.1435
N9900G3X-.9495Y1.1463I-.011J-.0152
N9910G1X-.9576Y1.1438
N9920X-.9671Y1.1413
N9930X-.9876Y1.1372
N9940X-1.0026Y1.1354
N9950X-1.0176Y1.1343
N9960X-1.0325Y1.1342
N9970X-1.0475Y1.135
N9980X-1.0625Y1.1367
N9990X-1.0775Y1.1391
N10X-1.0925Y1.142
N20X-1.1525Y1.1545
N30X-1.1675Y1.1585
N40X-1.1825Y1.1634
N50X-1.1975Y1.1693
N60X-1.2125Y1.1764
N70X-1.2275Y1.1847
N80X-1.2425Y1.1944
N90X-1.2518Y1.2012
N100X-1.2575Y1.2058
N110X-1.2725Y1.2189
N120X-1.2845Y1.2312
N130X-1.2973Y1.2462
N140X-1.3024Y1.2529
N150X-1.3082Y1.2612
N160X-1.3176Y1.2762
N170X-1.3257Y1.2912
N180X-1.3324Y1.3059
N190X-1.3382Y1.3212
N200X-1.3432Y1.3362
N210X-1.3571Y1.3812
N220X-1.3624Y1.4007
N230X-1.3646Y1.4111
N240X-1.3669Y1.4261
N250X-1.3725Y1.4861
N260X-1.3774Y1.5464
N270X-1.3851Y1.666
N280X-1.3858Y1.681
N290X-1.3857Y1.696
N300X-1.3847Y1.711
N310X-1.3829Y1.726
N320X-1.3803Y1.741
N330X-1.3774Y1.7538
N340X-1.3724Y1.771
N350X-1.3685Y1.7817
N360G3X-1.3695Y1.7968I-.0176J.0064
N370G1X-1.3717Y1.801
N380X-1.3774Y1.813
N390X-1.3847Y1.831
N400X-1.3897Y1.846
N410X-1.3938Y1.861
N420X-1.397Y1.876
N430X-1.3995Y1.8909
N440X-1.401Y1.9059
N450X-1.4019Y1.9209
N460X-1.4033Y2.0109
N470X-1.4037Y2.0559
N480X-1.4042Y2.1608
N490Y2.4457
N500X-1.4035Y2.4607
N510X-1.4018Y2.4757
N520X-1.3992Y2.4907
N530X-1.3955Y2.5057
N540X-1.3924Y2.516
N550X-1.385Y2.5357
N560X-1.3782Y2.5507
N570X-1.3703Y2.5657
N580X-1.3624Y2.5786
N590X-1.3506Y2.5957
N600X-1.3384Y2.6107
N610X-1.3243Y2.6256
N620X-1.3079Y2.6406
N630X-1.3024Y2.645
N640X-1.2883Y2.6556
N650X-1.2725Y2.6659
N660X-1.2643Y2.6706
N670X-1.2575Y2.6743
N680X-1.2425Y2.6816
N690X-1.2329Y2.6856
N700X-1.2125Y2.6928
N710X-1.1975Y2.6971
N720X-1.1825Y2.7005
N730X-1.1675Y2.7029
N740X-1.1525Y2.7046
N750X-1.1375Y2.7056
N760X-1.1075Y2.7068
N770X-1.0775Y2.7065
N780X-1.0475Y2.7054
N790X-1.0269Y2.7042
N800G0Z2.35
N810X-.6829Y.418
N820Z1.85
M09(Turn off air)
G65P9630H1.D1.
M30

