%
O0001(01_Roughing)
N0T20M6
N10(G54G90)
N20G54G90
 
/M3S15000.0
/G04X300.(DWELL FOR 5 MINUTES)
 
(Offset_area_clear)
 
M3S4000
 
(REMEMBER TO USE Y TO AVOID RADIUS ON STEEL TOOLS OTHERWISE WRONG HEIGHT Y-.1275)
G65P9624D1H1T1Y-.169
 

(THIS ISNT IN POST YET)
(Tool Holder Diameter: 10.0)

(GUAGE LENGTH)
#128 = 1.4
#127 = 3.9216 (REGOFIX TOOL HOLDER LENGTH)
#129 = #127 + #128 (THEORETICAL SAFE HEIGHT)
#130 = #11001 (CURRENT H VALUE)
IF [ #130 LE #129 ] THEN #3000 = 140
 
M250 (SEMI FINISH) 
 
(SPINDLE START)
M3S15000.0
G04 X10. (WAIT 10 SECONDS) 
 
N30( Toolpath Name: 01_Roughing)
N40( Output:)
N50( Units: INCHES)
N60( Tool Coordinates: Tip)
N70( Tool Number: 20)
N80( Tool Id: .375 OSG Exocarb 1.4 length)
N90( Coolant: None)
N100( Gauge Length: 5.208)
N110( Block:)
N120( MIN X: -2.80015)
N130( MIN Y: -0.34666)
N140( MIN Z: 0.00000)
N150( MAX X: 1.19985)
N160( MAX Y: 4.65334)
N170( MAX Z: 1.75000)
N180( COORDINATE SYSTEM: Active Workplane)
N190( Datum - Tool Tip:)
N200(   X: -0.80014)
N210(   Y: 2.15334)
N220(   Z: 2.35000)
N230( Recommended length: 1.40000)
N240( Number of Flutes: 1)
N250( Tool:   End Mill)
N260( DIAMETER: 0.37500)
N270( Safety:)
N280( Tool Cutting Moves: Safe No Gouges)
N290( Tool Leads: Safe No Gouges)
N300( Tool Links: Safe No Gouges)
N310( Holder Cutting Moves: Safe No Collisions)
N320( Holder Leads: Safe No Collisions)
N330( Holder Links: Safe No Collisions)
N340( Toolpath: Offset Area Clearance)
N350( STEPOVER: 0.12500)
N360( TOLERANCE:0.00030)
N370( THICKNESS:0.05000)
N380( Toolpath Stats:)
N390( LENGTH: 1611.46997)
N400( TIME: 0/17/22)
N410( LIFTS: 154)
 
M07(Turn on air)
 
N420G0X.7226Y-.0226M3
N430G43Z1.95H01
N440G1X.7213Y-.034Z1.948F30.
N450X.7208Y-.0417Z1.9466
N460X.7206Y-.0491Z1.9453
N470X.7208Y-.0566Z1.944
N480X.7213Y-.0643Z1.9426
N490X.7221Y-.0723Z1.9412
N500X.7234Y-.0806Z1.9397
N510X.7252Y-.0891Z1.9382
N520X.7274Y-.0979Z1.9366
N530X.7302Y-.1069Z1.9349
N540X.7337Y-.1161Z1.9332
N550X.7378Y-.1254Z1.9314
N560X.7426Y-.1349Z1.9295
N570X.7482Y-.1443Z1.9276
N580X.7545Y-.1537Z1.9256
N590X.7617Y-.1629Z1.9235
N600X.7698Y-.172Z1.9214
N610X.7787Y-.1807Z1.9192
N620X.7884Y-.189Z1.917
N630X.799Y-.1967Z1.9146
N640X.8104Y-.2038Z1.9123
N650X.8226Y-.2102Z1.9099
N660X.8354Y-.2156Z1.9074
N670X.8489Y-.2201Z1.9049
N680X.8628Y-.2236Z1.9024
N690X.877Y-.2259Z1.8998
N700X.8915Y-.2271Z1.8973
N710X.906Z1.8947
N720X.9205Y-.2259Z1.8922
N730X.9347Y-.2236Z1.8896
N740X.9486Y-.2201Z1.8871
N750X.962Y-.2156Z1.8846
N760X.9749Y-.2102Z1.8821
N770X.987Y-.2038Z1.8797
N780X.9985Y-.1967Z1.8773
N790X1.0091Y-.189Z1.875
N800X1.0188Y-.1807Z1.8728
N810X1.0277Y-.172Z1.8706
N820X1.0358Y-.1629Z1.8684
N830X1.043Y-.1537Z1.8664
N840X1.0493Y-.1443Z1.8644
N850X1.0549Y-.1349Z1.8624
N860X1.0597Y-.1254Z1.8606
N870X1.0638Y-.1161Z1.8588
N880X1.0672Y-.1069Z1.857
N890X1.0701Y-.0979Z1.8554
N900X1.0723Y-.0891Z1.8538
N910X1.0741Y-.0806Z1.8522
N920X1.0754Y-.0723Z1.8508
N930X1.0762Y-.0643Z1.8493
N940X1.0767Y-.0566Z1.848
N950X1.0769Y-.0491Z1.8467
N960X1.0767Y-.0417Z1.8454
N970X1.0762Y-.034Z1.844
N980X1.0754Y-.026Z1.8426
N990X1.0741Y-.0177Z1.8411
N1000X1.0723Y-.0092Z1.8396
N1010X1.0701Y-.0004Z1.838
N1020X1.0672Y.0086Z1.8363
N1030X1.0638Y.0178Z1.8346
N1040X1.0597Y.0272Z1.8328
N1050X1.0549Y.0366Z1.8309
N1060X1.0493Y.046Z1.829
N1070X1.043Y.0554Z1.827
N1080X1.0358Y.0647Z1.8249
N1090X1.0277Y.0737Z1.8228
N1100X1.0188Y.0824Z1.8206
N1110X1.0091Y.0907Z1.8183
N1120X1.0065Y.0926Z1.8178
N1130X1.0003Y.0962Z1.8165
N1140X.9932Y.0986Z1.8152
N1150X.9858Y.0995Z1.8139
N1160X.9784Y.0988Z1.8125
N1170X.9715Y.0966Z1.8113
N1180X.9617Y.0925Z1.8094
N1190X.9467Y.0871Z1.8066
N1200X.9317Y.0825Z1.8038
N1210X.9167Y.0787Z1.8011
N1220X.9049Y.0764Z1.799
N1230X.8867Y.0736Z1.7957
N1240X.8717Y.0722Z1.7931
N1250X.8567Y.0715Z1.7904
N1260X.7844Z1.7777
G90 G0 Z5.
M30